; program: MillingBowl()
G161
G90
F15000
; Program generated by RoboDK v3.4.5 for Fanuc M-10iA/10S on 27/06/2024 11:56:53
; Using nominal kinematics.
; Reference frame set to: X 612.358 Y -92.293 Z 0.000 A 0.000 B 0.000 C 0.000
; N00 G90 G92 X 612.358 Y -92.293 Z 0.000 A 0.000 B 0.000 C 0.000
; Tool frame set to: X 283.600 Y 0.000 Z 88.000 A 0.000 B 90.000 C 0.000
; N01 G90 G92 X 283.600 Y 0.000 Z 88.000 A 0.000 B 90.000 C 0.000
; Show Spindle
F60000.000
N02 G101 Q1 -34.536722 Q2 -48.171183 Q3 -2.447663 Q4 -93.550852 Q5 -34.612603 Q6 -85.688164
F60000.000
N03 G1 X 492.809 Y -209.777 Z 161.200 A 180.000 B -0.000 C -180.000
N04 G1 X 492.809 Y -209.777 Z 61.200 A 180.000 B -0.000 C -180.000
N05 G1 X 492.809 Y -209.777 Z 61.200 A 180.000 B -0.000 C -180.000
F300.000
N06 G1 X 492.809 Y -209.777 Z 60.000 A 180.000 B -0.000 C 180.000
N07 G1 X 494.209 Y -210.741 Z 60.000 A 180.000 B -0.000 C -180.000
N08 G1 X 494.770 Y -210.474 Z 60.000 A 180.000 B -0.000 C 180.000
N09 G1 X 495.122 Y -209.963 Z 60.000 A -180.000 B -0.000 C -180.000
N10 G1 X 495.171 Y -209.343 Z 60.000 A 180.000 B -0.000 C 180.000
F1000.020
N11 G1 X 495.068 Y -208.785 Z 60.000 A 180.000 B -0.000 C 180.000
N12 G1 X 495.465 Y -208.178 Z 60.000 A -180.000 B -0.000 C -180.000
N13 G1 X 495.377 Y -176.267 Z 60.000 A 180.000 B -0.000 C 180.000
N14 G1 X 495.378 Y 23.381 Z 60.000 A -160.000 B -0.000 C -180.000
N15 G1 X 495.064 Y 24.533 Z 60.000 A -160.000 B -0.000 C -180.000
N16 G1 X 495.303 Y 24.890 Z 60.000 A -160.000 B -0.000 C -180.000
N17 G1 X 495.893 Y 24.999 Z 60.000 A -160.000 B -0.000 C 180.000
N18 G1 X 496.372 Y 24.609 Z 60.000 A -160.000 B -0.000 C 180.000
N19 G1 X 501.543 Y 24.688 Z 60.000 A -160.000 B -0.000 C -180.000
N20 G1 X 536.726 Y 24.687 Z 60.000 A -160.000 B -0.000 C -180.000
N21 G1 X 537.273 Y 25.032 Z 60.000 A -160.000 B -0.000 C -180.000
N22 G1 X 537.947 Y 24.687 Z 60.000 A -160.000 B -0.000 C 180.000
N23 G1 X 586.756 Y 24.687 Z 60.000 A -160.000 B -0.000 C 180.000
N24 G1 X 587.301 Y 25.036 Z 60.000 A -160.000 B -0.000 C 180.000
N25 G1 X 587.976 Y 24.687 Z 60.000 A -160.000 B -0.000 C -180.000
N26 G1 X 636.785 Y 24.687 Z 60.000 A 180.000 B -0.000 C 180.000
N27 G1 X 637.233 Y 25.013 Z 60.000 A -160.000 B -0.000 C 180.000
N28 G1 X 638.005 Y 24.687 Z 60.000 A -180.000 B -0.000 C 180.000
N29 G1 X 686.712 Y 24.687 Z 60.000 A -180.000 B -0.000 C 180.000
N30 G1 X 687.260 Y 25.026 Z 60.000 A -180.000 B -0.000 C -180.000
N31 G1 X 687.933 Y 24.687 Z 60.000 A -180.000 B -0.000 C -180.000
N32 G1 X 728.302 Y 24.687 Z 60.000 A -180.000 B -0.000 C -180.000
N33 G1 X 728.753 Y 24.996 Z 60.000 A 180.000 B -0.000 C 180.000
N34 G1 X 729.265 Y 24.977 Z 60.000 A 180.000 B -0.000 C 180.000
N35 G1 X 729.671 Y 24.430 Z 60.000 A -180.000 B -0.000 C -180.000
N36 G1 X 729.469 Y 23.872 Z 60.000 A 180.000 B -0.000 C 180.000
N37 G1 X 729.251 Y 23.398 Z 60.000 A -180.000 B -0.000 C 180.000
N38 G1 X 729.339 Y -8.513 Z 60.000 A 180.000 B -0.000 C -180.000
N39 G1 X 729.338 Y -208.157 Z 60.000 A -180.000 B -0.000 C -180.000
N40 G1 X 729.684 Y -208.934 Z 60.000 A -180.000 B -0.000 C 180.000
N41 G1 X 729.381 Y -209.498 Z 60.000 A 180.000 B -0.000 C 180.000
N42 G1 X 728.888 Y -209.579 Z 60.000 A -180.000 B -0.000 C -180.000
N43 G1 X 728.309 Y -209.195 Z 60.000 A 180.000 B -0.000 C 180.000
N44 G1 X 723.137 Y -209.273 Z 60.000 A -180.000 B -0.000 C -180.000
N45 G1 X 687.954 Y -209.272 Z 60.000 A 180.000 B -0.000 C 180.000
N46 G1 X 687.408 Y -209.622 Z 60.000 A -180.000 B -0.000 C -180.000
N47 G1 X 686.734 Y -209.272 Z 60.000 A -180.000 B -0.000 C -180.000
N48 G1 X 637.925 Y -209.272 Z 60.000 A 180.000 B -0.000 C 180.000
N49 G1 X 637.381 Y -209.632 Z 60.000 A 180.000 B -0.000 C -180.000
N50 G1 X 636.704 Y -209.272 Z 60.000 A 180.000 B -0.000 C 180.000
N51 G1 X 587.997 Y -209.272 Z 60.000 A 180.000 B -0.000 C -180.000
N52 G1 X 587.353 Y -209.639 Z 60.000 A -180.000 B -0.000 C -180.000
N53 G1 X 586.777 Y -209.272 Z 60.000 A -180.000 B -0.000 C -180.000
N54 G1 X 537.968 Y -209.272 Z 60.000 A 180.000 B -0.000 C 180.000
N55 G1 X 537.422 Y -209.621 Z 60.000 A -180.000 B -0.000 C -180.000
N56 G1 X 536.748 Y -209.272 Z 60.000 A 180.000 B -0.000 C -180.000
N57 G1 X 496.378 Y -209.273 Z 60.000 A -180.000 B -0.000 C -180.000
N58 G1 X 495.731 Y -209.622 Z 60.000 A -180.000 B -0.000 C -180.000
N59 G1 X 495.171 Y -209.343 Z 60.000 A 180.000 B -0.000 C 180.000
F1000.020
N60 G1 X 494.563 Y -209.220 Z 60.000 A 180.000 B -0.000 C 180.000
N61 G1 X 493.974 Y -209.417 Z 60.000 A 180.000 B -0.000 C 180.000
N62 G1 X 493.562 Y -209.882 Z 60.000 A 180.000 B -0.000 C -180.000
N63 G1 X 494.102 Y -211.494 Z 60.000 A 180.000 B -0.000 C 180.000
N64 G1 X 494.102 Y -211.494 Z 61.200 A 180.000 B -0.000 C -180.000
F60000.000
N65 G1 X 547.585 Y -174.249 Z 61.200 A -180.000 B -0.000 C 180.000
F300.000
N66 G1 X 547.585 Y -174.249 Z 60.000 A -180.000 B -0.000 C -180.000
N67 G1 X 545.896 Y -174.447 Z 60.000 A 180.000 B -0.000 C -180.000
N68 G1 X 545.650 Y -175.017 Z 60.000 A -180.000 B -0.000 C 180.000
N69 G1 X 545.723 Y -175.634 Z 60.000 A -180.000 B -0.000 C 180.000
N70 G1 X 546.094 Y -176.132 Z 60.000 A -180.000 B -0.000 C 180.000
F1000.020
N71 G1 X 552.325 Y -180.702 Z 60.000 A -180.000 B -0.000 C -180.000
N72 G1 X 558.880 Y -184.815 Z 60.000 A 180.000 B -0.000 C 180.000
N73 G1 X 565.755 Y -188.460 Z 60.000 A -180.000 B -0.000 C 180.000
N74 G1 X 572.728 Y -191.537 Z 60.000 A 180.000 B -0.000 C 180.000
N75 G1 X 580.023 Y -194.149 Z 60.000 A -180.000 B -0.000 C -180.000
N76 G1 X 586.990 Y -196.091 Z 60.000 A -180.000 B -0.000 C 180.000
N77 G1 X 587.277 Y -195.990 Z 60.000 A -180.000 B -0.000 C -180.000
N78 G1 X 587.949 Y -196.325 Z 60.000 A -180.000 B -0.000 C -180.000
N79 G1 X 592.184 Y -197.236 Z 60.000 A -180.000 B -0.000 C 180.000
N80 G1 X 599.825 Y -198.420 Z 60.000 A -180.000 B -0.000 C 180.000
N81 G1 X 607.568 Y -199.051 Z 60.000 A -180.000 B -0.000 C 180.000
N82 G1 X 615.207 Y -199.119 Z 60.000 A 180.000 B -0.000 C -180.000
N83 G1 X 622.947 Y -198.632 Z 60.000 A -180.000 B -0.000 C -180.000
N84 G1 X 630.585 Y -197.592 Z 60.000 A -180.000 B -0.000 C -180.000
N85 G1 X 636.757 Y -196.321 Z 60.000 A -180.000 B -0.000 C -180.000
N86 G1 X 637.303 Y -195.976 Z 60.000 A 180.000 B -0.000 C 180.000
N87 G1 X 637.731 Y -196.091 Z 60.000 A 180.000 B -0.000 C 180.000
N88 G1 X 644.406 Y -194.240 Z 60.000 A 180.000 B -0.000 C 180.000
N89 G1 X 651.660 Y -191.668 Z 60.000 A -180.000 B -0.000 C -180.000
N90 G1 X 658.717 Y -188.578 Z 60.000 A -180.000 B -0.000 C -180.000
N91 G1 X 665.576 Y -184.965 Z 60.000 A -180.000 B -0.000 C 180.000
N92 G1 X 672.142 Y -180.871 Z 60.000 A -180.000 B -0.000 C 180.000
N93 G1 X 678.327 Y -176.364 Z 60.000 A 180.000 B -0.000 C -180.000
N94 G1 X 684.222 Y -171.384 Z 60.000 A -180.000 B -0.000 C -180.000
N95 G1 X 686.648 Y -169.100 Z 60.000 A -180.000 B -0.000 C -180.000
N96 G1 X 686.942 Y -168.486 Z 60.000 A -180.000 B -0.000 C -180.000
N97 G1 X 687.509 Y -168.255 Z 60.000 A -180.000 B -0.000 C 180.000
N98 G1 X 692.699 Y -162.758 Z 60.000 A -180.000 B -0.000 C -180.000
N99 G1 X 697.591 Y -156.756 Z 60.000 A 180.000 B -0.000 C -180.000
N100 G1 X 702.020 Y -150.439 Z 60.000 A 180.000 B -0.000 C 180.000
N101 G1 X 705.984 Y -143.812 Z 60.000 A -180.000 B -0.000 C -180.000
N102 G1 X 709.410 Y -137.025 Z 60.000 A 180.000 B -0.000 C -180.000
N103 G1 X 712.373 Y -129.935 Z 60.000 A -180.000 B -0.000 C -180.000
N104 G1 X 714.802 Y -122.703 Z 60.000 A 180.000 B -0.000 C 180.000
N105 G1 X 714.864 Y -122.488 Z 60.000 A -180.000 B -0.000 C -180.000
N106 G1 X 716.758 Y -115.108 Z 60.000 A 180.000 B -0.000 C -180.000
N107 G1 X 718.120 Y -107.609 Z 60.000 A 180.000 B -0.000 C 180.000
N108 G1 X 718.948 Y -99.963 Z 60.000 A 180.000 B -0.000 C -180.000
N109 G1 X 719.214 Y -92.580 Z 60.000 A 180.000 B -0.000 C 180.000
N110 G1 X 719.219 Y -92.060 Z 60.000 A 180.000 B -0.000 C -180.000
N111 G1 X 718.924 Y -84.390 Z 60.000 A -180.000 B -0.000 C -180.000
N112 G1 X 718.154 Y -77.459 Z 60.000 A 180.000 B -0.000 C 180.000
N113 G1 X 716.435 Y -68.132 Z 60.000 A 180.000 B -0.000 C -180.000
N114 G1 X 714.745 Y -61.727 Z 60.000 A -180.000 B -0.000 C -180.000
N115 G1 X 714.490 Y -60.891 Z 60.000 A 180.000 B -0.000 C 180.000
N116 G1 X 712.286 Y -54.453 Z 60.000 A 180.000 B -0.000 C -180.000
N117 G1 X 712.082 Y -53.898 Z 60.000 A 180.000 B -0.000 C 180.000
N118 G1 X 709.207 Y -47.133 Z 60.000 A 180.000 B -0.000 C -180.000
N119 G1 X 709.042 Y -46.786 Z 60.000 A -180.000 B -0.000 C -180.000
N120 G1 X 705.707 Y -40.281 Z 60.000 A 180.000 B -0.000 C 180.000
N121 G1 X 705.556 Y -40.012 Z 60.000 A 180.000 B -0.000 C 180.000
N122 G1 X 701.615 Y -33.531 Z 60.000 A 180.000 B -0.000 C 180.000
N123 G1 X 697.220 Y -27.343 Z 60.000 A -180.000 B -0.000 C -180.000
N124 G1 X 692.374 Y -21.461 Z 60.000 A 180.000 B -0.000 C -180.000
N125 G1 X 692.245 Y -21.316 Z 60.000 A -180.000 B -0.000 C -180.000
N126 G1 X 687.578 Y -16.408 Z 60.000 A -180.000 B -0.000 C -180.000
N127 G1 X 687.022 Y -16.148 Z 60.000 A 180.000 B -0.000 C 180.000
N128 G1 X 686.583 Y -15.423 Z 60.000 A 180.000 B -0.000 C -180.000
N129 G1 X 684.489 Y -13.442 Z 60.000 A 180.000 B -0.000 C 180.000
N130 G1 X 678.580 Y -8.418 Z 60.000 A 180.000 B -0.000 C 180.000
N131 G1 X 672.349 Y -3.854 Z 60.000 A 180.000 B -0.000 C 180.000
N132 G1 X 665.796 Y 0.252 Z 60.000 A -180.000 B -0.000 C -180.000
N133 G1 X 659.034 Y 3.840 Z 60.000 A 180.000 B -0.000 C -180.000
N134 G1 X 651.949 Y 6.969 Z 60.000 A 180.000 B -0.000 C 180.000
N135 G1 X 644.655 Y 9.575 Z 60.000 A 180.000 B -0.000 C 180.000
N136 G1 X 637.688 Y 11.516 Z 60.000 A 180.000 B -0.000 C 180.000
N137 G1 X 637.406 Y 11.388 Z 60.000 A 180.000 B -0.000 C -180.000
N138 G1 X 636.855 Y 11.622 Z 60.000 A -180.000 B -0.000 C -180.000
N139 G1 X 632.495 Y 12.659 Z 60.000 A -180.000 B -0.000 C 180.000
N140 G1 X 624.854 Y 13.840 Z 60.000 A -180.000 B -0.000 C 180.000
N141 G1 X 617.215 Y 14.462 Z 60.000 A 180.000 B -0.000 C 180.000
N142 G1 X 609.473 Y 14.534 Z 60.000 A -180.000 B -0.000 C -180.000
N143 G1 X 601.734 Y 14.044 Z 60.000 A 180.000 B -0.000 C 180.000
N144 G1 X 594.096 Y 13.002 Z 60.000 A 180.000 B -0.000 C 180.000
N145 G1 X 587.924 Y 11.729 Z 60.000 A 180.000 B -0.000 C 180.000
N146 G1 X 587.380 Y 11.375 Z 60.000 A -180.000 B -0.000 C -180.000
N147 G1 X 587.047 Y 11.523 Z 60.000 A 180.000 B -0.000 C -180.000
N148 G1 X 580.372 Y 9.672 Z 60.000 A -180.000 B -0.000 C -180.000
N149 G1 X 573.022 Y 7.071 Z 60.000 A -180.000 B -0.000 C -180.000
N150 G1 X 565.966 Y 3.979 Z 60.000 A 180.000 B -0.000 C 180.000
N151 G1 X 559.108 Y 0.361 Z 60.000 A 180.000 B -0.000 C 180.000
N152 G1 X 552.633 Y -3.676 Z 60.000 A 180.000 B -0.000 C 180.000
N153 G1 X 546.357 Y -8.244 Z 60.000 A -180.000 B -0.000 C 180.000
N154 G1 X 540.463 Y -13.227 Z 60.000 A -180.000 B -0.000 C -180.000
N155 G1 X 538.124 Y -15.432 Z 60.000 A -180.000 B -0.000 C 180.000
N156 G1 X 537.908 Y -15.916 Z 60.000 A 180.000 B -0.000 C 180.000
N157 G1 X 537.176 Y -16.360 Z 60.000 A -180.000 B -0.000 C -180.000
N158 G1 X 531.987 Y -21.859 Z 60.000 A 180.000 B -0.000 C -180.000
N159 G1 X 527.096 Y -27.868 Z 60.000 A -180.000 B -0.000 C 180.000
N160 G1 X 522.669 Y -34.191 Z 60.000 A 180.000 B -0.000 C 180.000
N161 G1 X 518.782 Y -40.683 Z 60.000 A 180.000 B -0.000 C 180.000
N162 G1 X 515.280 Y -47.614 Z 60.000 A 180.000 B -0.000 C 180.000
N163 G1 X 512.318 Y -54.713 Z 60.000 A -180.000 B -0.000 C -180.000
N164 G1 X 509.890 Y -61.950 Z 60.000 A -180.000 B -0.000 C -180.000
N165 G1 X 507.994 Y -69.315 Z 60.000 A -180.000 B -0.000 C 180.000
N166 G1 X 507.940 Y -69.574 Z 60.000 A -180.000 B -0.000 C -180.000
N167 G1 X 506.628 Y -76.794 Z 60.000 A 180.000 B -0.000 C -180.000
N168 G1 X 506.582 Y -77.097 Z 60.000 A 180.000 B -0.000 C -180.000
N169 G1 X 505.792 Y -84.392 Z 60.000 A -180.000 B -0.000 C -180.000
N170 G1 X 505.762 Y -84.782 Z 60.000 A 180.000 B -0.000 C 180.000
N171 G1 X 505.496 Y -92.165 Z 60.000 A -180.000 B -0.000 C 180.000
N172 G1 X 505.500 Y -92.739 Z 60.000 A -180.000 B -0.000 C -180.000
N173 G1 X 505.808 Y -100.476 Z 60.000 A 180.000 B -0.000 C -180.000
N174 G1 X 506.619 Y -107.633 Z 60.000 A 180.000 B -0.000 C 180.000
N175 G1 X 508.163 Y -116.008 Z 60.000 A -180.000 B -0.000 C -180.000
N176 G1 X 509.853 Y -122.415 Z 60.000 A -180.000 B -0.000 C -180.000
N177 G1 X 510.149 Y -123.471 Z 60.000 A -180.000 B -0.000 C 180.000
N178 G1 X 512.571 Y -130.540 Z 60.000 A -180.000 B -0.000 C -180.000
N179 G1 X 515.446 Y -137.306 Z 60.000 A -180.000 B -0.000 C -180.000
N180 G1 X 515.618 Y -137.691 Z 60.000 A 180.000 B -0.000 C -180.000
N181 G1 X 519.109 Y -144.489 Z 60.000 A 180.000 B -0.000 C -180.000
N182 G1 X 523.052 Y -150.984 Z 60.000 A -180.000 B -0.000 C -180.000
N183 G1 X 527.447 Y -157.175 Z 60.000 A -180.000 B -0.000 C -180.000
N184 G1 X 527.581 Y -157.350 Z 60.000 A -180.000 B -0.000 C -180.000
N185 G1 X 532.426 Y -163.223 Z 60.000 A 180.000 B -0.000 C 180.000
N186 G1 X 537.220 Y -168.264 Z 60.000 A 180.000 B -0.000 C 180.000
N187 G1 X 537.769 Y -168.483 Z 60.000 A -180.000 B -0.000 C -180.000
N188 G1 X 538.090 Y -169.121 Z 60.000 A 180.000 B -0.000 C -180.000
N189 G1 X 540.184 Y -171.102 Z 60.000 A -180.000 B -0.000 C 180.000
N190 G1 X 546.094 Y -176.132 Z 60.000 A -180.000 B -0.000 C 180.000
F1000.020
N191 G1 X 546.664 Y -176.378 Z 60.000 A 180.000 B -0.000 C -180.000
N192 G1 X 547.281 Y -176.306 Z 60.000 A -180.000 B -0.000 C -180.000
N193 G1 X 547.779 Y -175.935 Z 60.000 A -180.000 B -0.000 C -180.000
N194 G1 X 547.582 Y -174.246 Z 60.000 A 180.000 B -0.000 C 180.000
N195 G1 X 553.257 Y -166.830 Z 60.000 A -180.000 B -0.000 C -180.000
F300.000
N196 G1 X 553.257 Y -166.830 Z 54.000 A -180.000 B -0.000 C -180.000
N197 G1 X 551.571 Y -167.050 Z 54.000 A -180.000 B -0.000 C -180.000
N198 G1 X 551.332 Y -167.623 Z 54.000 A -180.000 B -0.000 C -180.000
N199 G1 X 551.412 Y -168.239 Z 54.000 A 180.000 B -0.000 C 180.000
N200 G1 X 551.790 Y -168.732 Z 54.000 A -180.000 B -0.000 C -180.000
F1000.020
N201 G1 X 556.123 Y -172.068 Z 54.000 A -180.000 B -0.000 C -180.000
N202 G1 X 561.676 Y -175.712 Z 54.000 A -180.000 B -0.000 C -180.000
N203 G1 X 565.319 Y -177.822 Z 54.000 A 180.000 B -0.000 C 180.000
N204 G1 X 569.926 Y -180.200 Z 54.000 A -180.000 B -0.000 C -180.000
N205 G1 X 573.701 Y -181.921 Z 54.000 A -180.000 B -0.000 C -180.000
N206 G1 X 578.422 Y -183.815 Z 54.000 A -180.000 B -0.000 C -180.000
N207 G1 X 584.383 Y -185.809 Z 54.000 A 180.000 B -0.000 C 180.000
N208 G1 X 588.868 Y -186.974 Z 54.000 A -180.000 B -0.000 C -180.000
N209 G1 X 594.915 Y -188.333 Z 54.000 A -180.000 B -0.000 C -180.000
N210 G1 X 601.602 Y -189.304 Z 54.000 A -180.000 B -0.000 C 180.000
N211 G1 X 609.023 Y -189.847 Z 54.000 A -180.000 B -0.000 C -180.000
N212 G1 X 616.542 Y -189.815 Z 54.000 A 180.000 B -0.000 C 180.000
N213 G1 X 624.354 Y -189.164 Z 54.000 A -180.000 B -0.000 C -180.000
N214 G1 X 631.953 Y -187.917 Z 54.000 A -180.000 B -0.000 C -180.000
N215 G1 X 637.993 Y -186.478 Z 54.000 A -180.000 B -0.000 C -180.000
N216 G1 X 645.202 Y -184.213 Z 54.000 A -180.000 B -0.000 C -180.000
N217 G1 X 652.020 Y -181.483 Z 54.000 A 180.000 B -0.000 C -180.000
N218 G1 X 658.178 Y -178.483 Z 54.000 A -180.000 B -0.000 C -180.000
N219 G1 X 664.058 Y -175.077 Z 54.000 A 180.000 B -0.000 C 180.000
N220 G1 X 670.652 Y -170.585 Z 54.000 A -180.000 B -0.000 C -180.000
N221 G1 X 676.670 Y -165.722 Z 54.000 A -180.000 B -0.000 C -180.000
N222 G1 X 682.381 Y -160.297 Z 54.000 A 180.000 B -0.000 C -180.000
N223 G1 X 685.939 Y -156.431 Z 54.000 A -180.000 B -0.000 C -180.000
N224 G1 X 690.819 Y -150.359 Z 54.000 A -180.000 B -0.000 C -180.000
N225 G1 X 694.981 Y -144.253 Z 54.000 A -180.000 B -0.000 C -180.000
N226 G1 X 698.077 Y -138.985 Z 54.000 A -180.000 B -0.000 C -180.000
N227 G1 X 700.906 Y -133.370 Z 54.000 A -180.000 B -0.000 C -180.000
N228 G1 X 703.243 Y -127.846 Z 54.000 A -180.000 B -0.000 C -180.000
N229 G1 X 705.772 Y -120.605 Z 54.000 A -180.000 B -0.000 C -180.000
N230 G1 X 708.059 Y -111.500 Z 54.000 A -180.000 B -0.000 C -180.000
N231 G1 X 709.245 Y -104.143 Z 54.000 A 180.000 B -0.000 C 180.000
N232 G1 X 709.597 Y -100.539 Z 54.000 A -180.000 B -0.000 C -180.000
N233 G1 X 709.969 Y -92.076 Z 54.000 A -180.000 B -0.000 C -180.000
N234 G1 X 709.708 Y -85.143 Z 54.000 A -180.000 B -0.000 C 180.000
N235 G1 X 708.980 Y -78.440 Z 54.000 A 180.000 B -0.000 C 180.000
N236 G1 X 707.562 Y -70.748 Z 54.000 A -180.000 B -0.000 C -180.000
N237 G1 X 706.750 Y -67.448 Z 54.000 A 180.000 B -0.000 C 180.000
N238 G1 X 704.450 Y -59.935 Z 54.000 A 180.000 B -0.000 C -180.000
N239 G1 X 701.253 Y -51.974 Z 54.000 A 180.000 B -0.000 C -180.000
N240 G1 X 698.505 Y -46.441 Z 54.000 A 180.000 B -0.000 C -180.000
N241 G1 X 695.205 Y -40.677 Z 54.000 A 180.000 B -0.000 C 180.000
N242 G1 X 690.337 Y -33.580 Z 54.000 A -180.000 B -0.000 C -180.000
N243 G1 X 686.381 Y -28.668 Z 54.000 A 180.000 B -0.000 C -180.000
N244 G1 X 681.679 Y -23.572 Z 54.000 A -180.000 B -0.000 C -180.000
N245 G1 X 675.187 Y -17.590 Z 54.000 A -180.000 B -0.000 C -180.000
N246 G1 X 668.552 Y -12.489 Z 54.000 A 180.000 B -0.000 C -180.000
N247 G1 X 663.000 Y -8.847 Z 54.000 A 180.000 B -0.000 C -180.000
N248 G1 X 659.358 Y -6.741 Z 54.000 A 180.000 B -0.000 C 180.000
N249 G1 X 654.751 Y -4.367 Z 54.000 A 180.000 B -0.000 C 180.000
N250 G1 X 650.976 Y -2.646 Z 54.000 A -180.000 B -0.000 C -180.000
N251 G1 X 646.365 Y -0.799 Z 54.000 A 180.000 B -0.000 C 180.000
N252 G1 X 640.295 Y 1.236 Z 54.000 A 180.000 B -0.000 C 180.000
N253 G1 X 636.020 Y 2.364 Z 54.000 A -180.000 B -0.000 C -180.000
N254 G1 X 629.764 Y 3.755 Z 54.000 A 180.000 B -0.000 C 180.000
N255 G1 X 623.077 Y 4.723 Z 54.000 A 180.000 B -0.000 C 180.000
N256 G1 X 615.656 Y 5.263 Z 54.000 A 180.000 B -0.000 C 180.000
N257 G1 X 608.138 Y 5.228 Z 54.000 A 180.000 B -0.000 C -180.000
N258 G1 X 600.327 Y 4.575 Z 54.000 A -180.000 B -0.000 C -180.000
N259 G1 X 592.728 Y 3.325 Z 54.000 A 180.000 B -0.000 C -180.000
N260 G1 X 586.689 Y 1.884 Z 54.000 A 180.000 B -0.000 C 180.000
N261 G1 X 579.576 Y -0.350 Z 54.000 A 180.000 B -0.000 C 180.000
N262 G1 X 572.757 Y -3.075 Z 54.000 A 180.000 B -0.000 C 180.000
N263 G1 X 566.599 Y -6.072 Z 54.000 A -180.000 B -0.000 C -180.000
N264 G1 X 560.626 Y -9.527 Z 54.000 A -180.000 B -0.000 C -180.000
N265 G1 X 554.658 Y -13.560 Z 54.000 A 180.000 B -0.000 C -180.000
N266 G1 X 549.243 Y -17.833 Z 54.000 A 180.000 B -0.000 C 180.000
N267 G1 X 545.062 Y -21.625 Z 54.000 A 180.000 B -0.000 C 180.000
N268 G1 X 539.841 Y -26.953 Z 54.000 A 180.000 B -0.000 C -180.000
N269 G1 X 535.176 Y -32.535 Z 54.000 A -180.000 B -0.000 C -180.000
N270 G1 X 531.608 Y -37.451 Z 54.000 A 180.000 B -0.000 C 180.000
N271 G1 X 528.145 Y -42.933 Z 54.000 A -180.000 B -0.000 C -180.000
N272 G1 X 525.109 Y -48.526 Z 54.000 A -180.000 B -0.000 C -180.000
N273 G1 X 522.279 Y -54.691 Z 54.000 A 180.000 B -0.000 C 180.000
N274 G1 X 519.497 Y -62.211 Z 54.000 A -180.000 B -0.000 C -180.000
N275 G1 X 518.005 Y -67.357 Z 54.000 A -180.000 B -0.000 C -180.000
N276 G1 X 516.640 Y -73.188 Z 54.000 A -180.000 B -0.000 C 180.000
N277 G1 X 515.455 Y -80.549 Z 54.000 A -180.000 B -0.000 C -180.000
N278 G1 X 514.789 Y -89.621 Z 54.000 A 180.000 B -0.000 C -180.000
N279 G1 X 514.751 Y -93.276 Z 54.000 A -180.000 B -0.000 C 180.000
N280 G1 X 515.035 Y -99.780 Z 54.000 A 180.000 B -0.000 C 180.000
N281 G1 X 515.876 Y -107.100 Z 54.000 A -180.000 B -0.000 C 180.000
N282 G1 X 516.931 Y -112.822 Z 54.000 A -180.000 B -0.000 C 180.000
N283 G1 X 518.181 Y -117.946 Z 54.000 A -180.000 B -0.000 C -180.000
N284 G1 X 520.403 Y -125.034 Z 54.000 A 180.000 B -0.000 C -180.000
N285 G1 X 523.402 Y -132.475 Z 54.000 A 180.000 B -0.000 C -180.000
N286 G1 X 526.156 Y -138.038 Z 54.000 A 180.000 B -0.000 C 180.000
N287 G1 X 529.461 Y -143.830 Z 54.000 A -180.000 B -0.000 C -180.000
N288 G1 X 534.331 Y -150.943 Z 54.000 A -180.000 B -0.000 C -180.000
N289 G1 X 538.289 Y -155.860 Z 54.000 A 180.000 B -0.000 C 180.000
N290 G1 X 543.118 Y -161.097 Z 54.000 A -180.000 B -0.000 C -180.000
N291 G1 X 549.487 Y -166.960 Z 54.000 A 180.000 B -0.000 C 180.000
N292 G1 X 551.790 Y -168.732 Z 54.000 A -180.000 B -0.000 C -180.000
F1000.020
N293 G1 X 552.363 Y -168.971 Z 54.000 A -180.000 B -0.000 C 180.000
N294 G1 X 552.979 Y -168.891 Z 54.000 A -180.000 B -0.000 C 180.000
N295 G1 X 553.473 Y -168.513 Z 54.000 A 180.000 B -0.000 C -180.000
N296 G1 X 553.253 Y -166.828 Z 54.000 A -180.000 B -0.000 C -180.000
N297 G1 X 556.674 Y -162.340 Z 54.000 A -180.000 B -0.000 C 180.000
F300.000
N298 G1 X 556.674 Y -162.340 Z 48.000 A 180.000 B -0.000 C -180.000
N299 G1 X 554.989 Y -162.566 Z 48.000 A 180.000 B -0.000 C -180.000
N300 G1 X 554.753 Y -163.140 Z 48.000 A -180.000 B -0.000 C -180.000
N301 G1 X 554.835 Y -163.756 Z 48.000 A -180.000 B -0.000 C 180.000
N302 G1 X 555.215 Y -164.248 Z 48.000 A -180.000 B -0.000 C -180.000
F1000.020
N303 G1 X 560.156 Y -168.022 Z 48.000 A 180.000 B -0.000 C -180.000
N304 G1 X 567.620 Y -172.658 Z 48.000 A -180.000 B -0.000 C -180.000
N305 G1 X 574.901 Y -176.296 Z 48.000 A 180.000 B -0.000 C 180.000
N306 G1 X 576.334 Y -176.899 Z 48.000 A 180.000 B -0.000 C 180.000
N307 G1 X 583.767 Y -179.714 Z 48.000 A -180.000 B -0.000 C 180.000
N308 G1 X 590.199 Y -181.507 Z 48.000 A -180.000 B -0.000 C 180.000
N309 G1 X 596.240 Y -182.836 Z 48.000 A -180.000 B -0.000 C -180.000
N310 G1 X 603.752 Y -183.866 Z 48.000 A -180.000 B -0.000 C 180.000
N311 G1 X 611.044 Y -184.262 Z 48.000 A -180.000 B -0.000 C -180.000
N312 G1 X 618.030 Y -184.095 Z 48.000 A -180.000 B -0.000 C -180.000
N313 G1 X 624.120 Y -183.485 Z 48.000 A -180.000 B -0.000 C -180.000
N314 G1 X 630.729 Y -182.378 Z 48.000 A -180.000 B -0.000 C -180.000
N315 G1 X 637.258 Y -180.836 Z 48.000 A -180.000 B -0.000 C -180.000
N316 G1 X 643.308 Y -178.908 Z 48.000 A -180.000 B -0.000 C 180.000
N317 G1 X 649.738 Y -176.278 Z 48.000 A 180.000 B -0.000 C 180.000
N318 G1 X 654.878 Y -173.820 Z 48.000 A -180.000 B -0.000 C -180.000
N319 G1 X 660.315 Y -170.775 Z 48.000 A -180.000 B -0.000 C -180.000
N320 G1 X 660.955 Y -170.383 Z 48.000 A 180.000 B -0.000 C -180.000
N321 G1 X 667.636 Y -165.804 Z 48.000 A -180.000 B -0.000 C -180.000
N322 G1 X 668.970 Y -164.767 Z 48.000 A -180.000 B -0.000 C -180.000
N323 G1 X 674.427 Y -160.171 Z 48.000 A 180.000 B -0.000 C 180.000
N324 G1 X 678.554 Y -156.085 Z 48.000 A -180.000 B -0.000 C -180.000
N325 G1 X 682.617 Y -151.650 Z 48.000 A 180.000 B -0.000 C 180.000
N326 G1 X 686.491 Y -146.737 Z 48.000 A -180.000 B -0.000 C -180.000
N327 G1 X 690.799 Y -140.321 Z 48.000 A -180.000 B -0.000 C -180.000
N328 G1 X 694.466 Y -133.739 Z 48.000 A -180.000 B -0.000 C -180.000
N329 G1 X 698.063 Y -125.671 Z 48.000 A 180.000 B -0.000 C -180.000
N330 G1 X 700.312 Y -119.117 Z 48.000 A -180.000 B -0.000 C -180.000
N331 G1 X 701.752 Y -113.693 Z 48.000 A -180.000 B -0.000 C -180.000
N332 G1 X 703.190 Y -106.600 Z 48.000 A 180.000 B -0.000 C 180.000
N333 G1 X 704.011 Y -100.022 Z 48.000 A 180.000 B -0.000 C 180.000
N334 G1 X 704.320 Y -93.424 Z 48.000 A 180.000 B -0.000 C 180.000
N335 G1 X 704.211 Y -88.420 Z 48.000 A 180.000 B -0.000 C -180.000
N336 G1 X 703.708 Y -81.831 Z 48.000 A 180.000 B -0.000 C -180.000
N337 G1 X 702.525 Y -74.314 Z 48.000 A 180.000 B -0.000 C 180.000
N338 G1 X 700.479 Y -65.974 Z 48.000 A 180.000 B -0.000 C -180.000
N339 G1 X 698.255 Y -59.429 Z 48.000 A -180.000 B -0.000 C -180.000
N340 G1 X 697.681 Y -57.970 Z 48.000 A 180.000 B -0.000 C -180.000
N341 G1 X 694.746 Y -51.425 Z 48.000 A 180.000 B -0.000 C 180.000
N342 G1 X 694.580 Y -51.074 Z 48.000 A 180.000 B -0.000 C 180.000
N343 G1 X 690.340 Y -43.522 Z 48.000 A 180.000 B -0.000 C 180.000
N344 G1 X 685.622 Y -36.685 Z 48.000 A 180.000 B -0.000 C -180.000
N345 G1 X 681.303 Y -31.458 Z 48.000 A 180.000 B -0.000 C 180.000
N346 G1 X 677.122 Y -26.983 Z 48.000 A 180.000 B -0.000 C 180.000
N347 G1 X 671.618 Y -21.949 Z 48.000 A 180.000 B -0.000 C 180.000
N348 G1 X 664.636 Y -16.618 Z 48.000 A 180.000 B -0.000 C 180.000
N349 G1 X 657.056 Y -11.908 Z 48.000 A -180.000 B -0.000 C -180.000
N350 G1 X 649.776 Y -8.270 Z 48.000 A 180.000 B -0.000 C -180.000
N351 G1 X 648.343 Y -7.671 Z 48.000 A 180.000 B -0.000 C 180.000
N352 G1 X 640.910 Y -4.858 Z 48.000 A 180.000 B -0.000 C -180.000
N353 G1 X 634.479 Y -3.068 Z 48.000 A -180.000 B -0.000 C -180.000
N354 G1 X 628.439 Y -1.743 Z 48.000 A 180.000 B -0.000 C -180.000
N355 G1 X 622.067 Y -0.828 Z 48.000 A 180.000 B -0.000 C -180.000
N356 G1 X 613.636 Y -0.322 Z 48.000 A -180.000 B -0.000 C -180.000
N357 G1 X 606.651 Y -0.491 Z 48.000 A 180.000 B -0.000 C -180.000
N358 G1 X 600.561 Y -1.104 Z 48.000 A 180.000 B -0.000 C 180.000
N359 G1 X 593.953 Y -2.215 Z 48.000 A 180.000 B -0.000 C -180.000
N360 G1 X 587.328 Y -3.785 Z 48.000 A 180.000 B -0.000 C 180.000
N361 G1 X 581.470 Y -5.655 Z 48.000 A 180.000 B -0.000 C -180.000
N362 G1 X 575.039 Y -8.281 Z 48.000 A 180.000 B -0.000 C -180.000
N363 G1 X 569.806 Y -10.781 Z 48.000 A 180.000 B -0.000 C -180.000
N364 G1 X 564.368 Y -13.828 Z 48.000 A 180.000 B -0.000 C -180.000
N365 G1 X 563.729 Y -14.222 Z 48.000 A 180.000 B -0.000 C -180.000
N366 G1 X 557.049 Y -18.802 Z 48.000 A 180.000 B -0.000 C 180.000
N367 G1 X 555.715 Y -19.842 Z 48.000 A -180.000 B -0.000 C -180.000
N368 G1 X 550.259 Y -24.443 Z 48.000 A 180.000 B -0.000 C 180.000
N369 G1 X 546.131 Y -28.530 Z 48.000 A -180.000 B -0.000 C -180.000
N370 G1 X 542.069 Y -32.968 Z 48.000 A -180.000 B -0.000 C -180.000
N371 G1 X 538.278 Y -37.777 Z 48.000 A -180.000 B -0.000 C -180.000
N372 G1 X 533.889 Y -44.309 Z 48.000 A -180.000 B -0.000 C -180.000
N373 G1 X 530.297 Y -50.748 Z 48.000 A -180.000 B -0.000 C 180.000
N374 G1 X 526.697 Y -58.796 Z 48.000 A 180.000 B -0.000 C 180.000
N375 G1 X 524.447 Y -65.342 Z 48.000 A 180.000 B -0.000 C 180.000
N376 G1 X 523.872 Y -67.188 Z 48.000 A -180.000 B -0.000 C -180.000
N377 G1 X 521.887 Y -75.724 Z 48.000 A 180.000 B -0.000 C -180.000
N378 G1 X 521.509 Y -78.088 Z 48.000 A -180.000 B -0.000 C 180.000
N379 G1 X 520.731 Y -84.348 Z 48.000 A 180.000 B -0.000 C 180.000
N380 G1 X 520.445 Y -89.416 Z 48.000 A 180.000 B -0.000 C -180.000
N381 G1 X 520.482 Y -95.130 Z 48.000 A -180.000 B -0.000 C -180.000
N382 G1 X 520.862 Y -101.602 Z 48.000 A -180.000 B -0.000 C 180.000
N383 G1 X 521.720 Y -107.910 Z 48.000 A 180.000 B -0.000 C 180.000
N384 G1 X 522.624 Y -112.262 Z 48.000 A -180.000 B -0.000 C -180.000
N385 G1 X 524.382 Y -119.038 Z 48.000 A -180.000 B -0.000 C -180.000
N386 G1 X 526.383 Y -124.929 Z 48.000 A -180.000 B -0.000 C -180.000
N387 G1 X 526.974 Y -126.481 Z 48.000 A 180.000 B -0.000 C -180.000
N388 G1 X 530.082 Y -133.412 Z 48.000 A 180.000 B -0.000 C 180.000
N389 G1 X 534.467 Y -141.202 Z 48.000 A 180.000 B -0.000 C -180.000
N390 G1 X 539.045 Y -147.830 Z 48.000 A -180.000 B -0.000 C -180.000
N391 G1 X 539.449 Y -148.366 Z 48.000 A -180.000 B -0.000 C -180.000
N392 G1 X 543.368 Y -153.075 Z 48.000 A 180.000 B -0.000 C -180.000
N393 G1 X 547.550 Y -157.559 Z 48.000 A -180.000 B -0.000 C -180.000
N394 G1 X 553.055 Y -162.599 Z 48.000 A 180.000 B -0.000 C 180.000
N395 G1 X 555.215 Y -164.248 Z 48.000 A -180.000 B -0.000 C -180.000
F1000.020
N396 G1 X 555.789 Y -164.484 Z 48.000 A 180.000 B -0.000 C -180.000
N397 G1 X 556.405 Y -164.402 Z 48.000 A 180.000 B -0.000 C 180.000
N398 G1 X 556.897 Y -164.022 Z 48.000 A -180.000 B -0.000 C 180.000
N399 G1 X 556.671 Y -162.337 Z 48.000 A 180.000 B -0.000 C -180.000
N400 G1 X 560.623 Y -157.250 Z 48.000 A 180.000 B -0.000 C -180.000
F300.000
N401 G1 X 560.623 Y -157.250 Z 42.000 A 180.000 B -0.000 C 180.000
N402 G1 X 558.937 Y -157.466 Z 42.000 A 180.000 B -0.000 C -180.000
N403 G1 X 558.698 Y -158.039 Z 42.000 A -180.000 B -0.000 C -180.000
N404 G1 X 558.777 Y -158.655 Z 42.000 A -180.000 B -0.000 C -180.000
N405 G1 X 559.153 Y -159.149 Z 42.000 A 180.000 B -0.000 C 180.000
F1000.020
N406 G1 X 563.751 Y -162.701 Z 42.000 A -180.000 B -0.000 C -180.000
N407 G1 X 567.561 Y -165.166 Z 42.000 A 180.000 B -0.000 C 180.000
N408 G1 X 570.303 Y -166.801 Z 42.000 A -180.000 B -0.000 C 180.000
N409 G1 X 575.700 Y -169.600 Z 42.000 A -180.000 B -0.000 C 180.000
N410 G1 X 582.427 Y -172.443 Z 42.000 A 180.000 B -0.000 C 180.000
N411 G1 X 588.384 Y -174.422 Z 42.000 A 180.000 B -0.000 C 180.000
N412 G1 X 595.204 Y -176.112 Z 42.000 A -180.000 B -0.000 C -180.000
N413 G1 X 602.538 Y -177.284 Z 42.000 A -180.000 B -0.000 C -180.000
N414 G1 X 608.524 Y -177.765 Z 42.000 A -180.000 B -0.000 C -180.000
N415 G1 X 616.050 Y -177.770 Z 42.000 A -180.000 B -0.000 C -180.000
N416 G1 X 623.556 Y -177.114 Z 42.000 A -180.000 B -0.000 C 180.000
N417 G1 X 630.648 Y -175.873 Z 42.000 A 180.000 B -0.000 C -180.000
N418 G1 X 637.918 Y -173.942 Z 42.000 A 180.000 B -0.000 C 180.000
N419 G1 X 644.026 Y -171.773 Z 42.000 A -180.000 B -0.000 C 180.000
N420 G1 X 649.669 Y -169.285 Z 42.000 A -180.000 B -0.000 C 180.000
N421 G1 X 656.235 Y -165.742 Z 42.000 A 180.000 B -0.000 C 180.000
N422 G1 X 662.043 Y -161.944 Z 42.000 A 180.000 B -0.000 C -180.000
N423 G1 X 667.294 Y -157.884 Z 42.000 A 180.000 B -0.000 C -180.000
N424 G1 X 672.597 Y -153.004 Z 42.000 A -180.000 B -0.000 C -180.000
N425 G1 X 678.023 Y -147.136 Z 42.000 A -180.000 B -0.000 C 180.000
N426 G1 X 682.529 Y -141.241 Z 42.000 A -180.000 B -0.000 C -180.000
N427 G1 X 684.914 Y -137.632 Z 42.000 A 180.000 B -0.000 C 180.000
N428 G1 X 687.995 Y -132.281 Z 42.000 A -180.000 B -0.000 C -180.000
N429 G1 X 689.557 Y -129.174 Z 42.000 A -180.000 B -0.000 C -180.000
N430 G1 X 691.984 Y -123.585 Z 42.000 A -180.000 B -0.000 C -180.000
N431 G1 X 693.665 Y -118.917 Z 42.000 A -180.000 B -0.000 C -180.000
N432 G1 X 695.745 Y -111.444 Z 42.000 A 180.000 B -0.000 C -180.000
N433 G1 X 697.241 Y -103.012 Z 42.000 A 180.000 B -0.000 C 180.000
N434 G1 X 697.859 Y -95.335 Z 42.000 A -180.000 B -0.000 C -180.000
N435 G1 X 697.800 Y -87.843 Z 42.000 A 180.000 B -0.000 C 180.000
N436 G1 X 697.167 Y -81.100 Z 42.000 A -180.000 B -0.000 C -180.000
N437 G1 X 696.137 Y -74.963 Z 42.000 A 180.000 B -0.000 C 180.000
N438 G1 X 694.014 Y -66.758 Z 42.000 A -180.000 B -0.000 C -180.000
N439 G1 X 692.082 Y -61.243 Z 42.000 A 180.000 B -0.000 C 180.000
N440 G1 X 689.270 Y -54.817 Z 42.000 A 180.000 B -0.000 C 180.000
N441 G1 X 686.020 Y -48.772 Z 42.000 A 180.000 B -0.000 C 180.000
N442 G1 X 681.635 Y -42.086 Z 42.000 A 180.000 B -0.000 C 180.000
N443 G1 X 677.647 Y -37.000 Z 42.000 A 180.000 B -0.000 C 180.000
N444 G1 X 673.066 Y -32.009 Z 42.000 A 180.000 B -0.000 C 180.000
N445 G1 X 668.155 Y -27.434 Z 42.000 A 180.000 B -0.000 C 180.000
N446 G1 X 661.741 Y -22.429 Z 42.000 A 180.000 B -0.000 C 180.000
N447 G1 X 657.113 Y -19.384 Z 42.000 A 180.000 B -0.000 C 180.000
N448 G1 X 652.676 Y -16.831 Z 42.000 A 180.000 B -0.000 C -180.000
N449 G1 X 646.425 Y -13.810 Z 42.000 A -180.000 B -0.000 C -180.000
N450 G1 X 639.098 Y -11.021 Z 42.000 A 180.000 B -0.000 C 180.000
N451 G1 X 631.381 Y -8.877 Z 42.000 A 180.000 B -0.000 C 180.000
N452 G1 X 623.807 Y -7.505 Z 42.000 A 180.000 B -0.000 C -180.000
N453 G1 X 616.258 Y -6.824 Z 42.000 A 180.000 B -0.000 C -180.000
N454 G1 X 608.630 Y -6.817 Z 42.000 A 180.000 B -0.000 C 180.000
N455 G1 X 601.125 Y -7.476 Z 42.000 A 180.000 B -0.000 C -180.000
N456 G1 X 594.131 Y -8.699 Z 42.000 A 180.000 B -0.000 C -180.000
N457 G1 X 586.764 Y -10.654 Z 42.000 A 180.000 B -0.000 C 180.000
N458 G1 X 580.656 Y -12.825 Z 42.000 A 180.000 B -0.000 C 180.000
N459 G1 X 575.014 Y -15.315 Z 42.000 A 180.000 B -0.000 C 180.000
N460 G1 X 568.449 Y -18.863 Z 42.000 A 180.000 B -0.000 C 180.000
N461 G1 X 562.641 Y -22.663 Z 42.000 A -180.000 B -0.000 C 180.000
N462 G1 X 557.479 Y -26.655 Z 42.000 A 180.000 B -0.000 C 180.000
N463 G1 X 552.089 Y -31.610 Z 42.000 A 180.000 B -0.000 C 180.000
N464 G1 X 546.664 Y -37.483 Z 42.000 A 180.000 B -0.000 C 180.000
N465 G1 X 542.240 Y -43.272 Z 42.000 A 180.000 B -0.000 C -180.000
N466 G1 X 539.774 Y -46.997 Z 42.000 A -180.000 B -0.000 C -180.000
N467 G1 X 536.771 Y -52.217 Z 42.000 A -180.000 B -0.000 C -180.000
N468 G1 X 535.206 Y -55.312 Z 42.000 A 180.000 B -0.000 C 180.000
N469 G1 X 532.707 Y -61.057 Z 42.000 A -180.000 B -0.000 C -180.000
N470 G1 X 531.092 Y -65.538 Z 42.000 A -180.000 B -0.000 C -180.000
N471 G1 X 529.007 Y -72.981 Z 42.000 A 180.000 B -0.000 C 180.000
N472 G1 X 527.503 Y -81.365 Z 42.000 A -180.000 B -0.000 C -180.000
N473 G1 X 526.867 Y -88.950 Z 42.000 A 180.000 B -0.000 C -180.000
N474 G1 X 526.934 Y -97.034 Z 42.000 A -180.000 B -0.000 C 180.000
N475 G1 X 527.639 Y -104.165 Z 42.000 A -180.000 B -0.000 C 180.000
N476 G1 X 528.989 Y -111.487 Z 42.000 A -180.000 B -0.000 C 180.000
N477 G1 X 530.615 Y -117.550 Z 42.000 A -180.000 B -0.000 C -180.000
N478 G1 X 532.566 Y -123.169 Z 42.000 A -180.000 B -0.000 C -180.000
N479 G1 X 535.552 Y -129.989 Z 42.000 A -180.000 B -0.000 C -180.000
N480 G1 X 538.644 Y -135.727 Z 42.000 A -180.000 B -0.000 C -180.000
N481 G1 X 543.032 Y -142.432 Z 42.000 A 180.000 B -0.000 C -180.000
N482 G1 X 547.153 Y -147.686 Z 42.000 A -180.000 B -0.000 C -180.000
N483 G1 X 551.606 Y -152.531 Z 42.000 A 180.000 B -0.000 C -180.000
N484 G1 X 556.518 Y -157.113 Z 42.000 A -180.000 B -0.000 C -180.000
N485 G1 X 559.153 Y -159.149 Z 42.000 A 180.000 B -0.000 C 180.000
F1000.020
N486 G1 X 559.726 Y -159.389 Z 42.000 A -180.000 B -0.000 C 180.000
N487 G1 X 560.343 Y -159.310 Z 42.000 A -180.000 B -0.000 C 180.000
N488 G1 X 560.837 Y -158.933 Z 42.000 A -180.000 B -0.000 C -180.000
N489 G1 X 560.620 Y -157.247 Z 42.000 A -180.000 B -0.000 C -180.000
N490 G1 X 565.587 Y -151.848 Z 42.000 A -180.000 B -0.000 C -180.000
F300.000
N491 G1 X 565.587 Y -151.848 Z 36.000 A 180.000 B -0.000 C -180.000
N492 G1 X 563.890 Y -151.956 Z 36.000 A -180.000 B -0.000 C -180.000
N493 G1 X 563.614 Y -152.512 Z 36.000 A -180.000 B -0.000 C -180.000
N494 G1 X 563.653 Y -153.132 Z 36.000 A -180.000 B -0.000 C -180.000
N495 G1 X 563.997 Y -153.650 Z 36.000 A 180.000 B -0.000 C -180.000
F1000.020
N496 G1 X 564.382 Y -153.988 Z 36.000 A 180.000 B -0.000 C -180.000
N497 G1 X 569.871 Y -157.839 Z 36.000 A -180.000 B -0.000 C 180.000
N498 G1 X 572.293 Y -159.394 Z 36.000 A -180.000 B -0.000 C -180.000
N499 G1 X 579.170 Y -163.049 Z 36.000 A 180.000 B -0.000 C 180.000
N500 G1 X 585.448 Y -165.666 Z 36.000 A 180.000 B -0.000 C 180.000
N501 G1 X 591.815 Y -167.659 Z 36.000 A 180.000 B -0.000 C 180.000
N502 G1 X 598.086 Y -169.129 Z 36.000 A 180.000 B -0.000 C 180.000
N503 G1 X 598.612 Y -169.227 Z 36.000 A -180.000 B -0.000 C -180.000
N504 G1 X 607.246 Y -170.278 Z 36.000 A -180.000 B -0.000 C 180.000
N505 G1 X 607.555 Y -170.299 Z 36.000 A -180.000 B -0.000 C -180.000
N506 G1 X 615.199 Y -170.396 Z 36.000 A -180.000 B -0.000 C -180.000
N507 G1 X 621.314 Y -169.919 Z 36.000 A -180.000 B -0.000 C -180.000
N508 G1 X 628.718 Y -168.715 Z 36.000 A 180.000 B -0.000 C 180.000
N509 G1 X 636.660 Y -166.562 Z 36.000 A -180.000 B -0.000 C -180.000
N510 G1 X 644.819 Y -163.385 Z 36.000 A -180.000 B -0.000 C 180.000
N511 G1 X 653.336 Y -158.841 Z 36.000 A -180.000 B -0.000 C -180.000
N512 G1 X 656.685 Y -156.598 Z 36.000 A -180.000 B -0.000 C -180.000
N513 G1 X 662.666 Y -152.089 Z 36.000 A -180.000 B -0.000 C -180.000
N514 G1 X 668.311 Y -146.855 Z 36.000 A 180.000 B -0.000 C 180.000
N515 G1 X 668.738 Y -146.414 Z 36.000 A -180.000 B -0.000 C -180.000
N516 G1 X 673.011 Y -141.461 Z 36.000 A 180.000 B -0.000 C 180.000
N517 G1 X 674.675 Y -139.458 Z 36.000 A 180.000 B -0.000 C -180.000
N518 G1 X 679.852 Y -131.689 Z 36.000 A -180.000 B -0.000 C -180.000
N519 G1 X 680.162 Y -131.160 Z 36.000 A -180.000 B -0.000 C -180.000
N520 G1 X 684.312 Y -122.787 Z 36.000 A -180.000 B -0.000 C -180.000
N521 G1 X 684.736 Y -121.778 Z 36.000 A 180.000 B -0.000 C 180.000
N522 G1 X 686.873 Y -115.717 Z 36.000 A 180.000 B -0.000 C -180.000
N523 G1 X 688.527 Y -109.800 Z 36.000 A 180.000 B -0.000 C -180.000
N524 G1 X 689.602 Y -104.045 Z 36.000 A -180.000 B -0.000 C -180.000
N525 G1 X 690.386 Y -96.715 Z 36.000 A 180.000 B -0.000 C -180.000
N526 G1 X 690.509 Y -92.422 Z 36.000 A -180.000 B -0.000 C -180.000
N527 G1 X 690.310 Y -86.928 Z 36.000 A -180.000 B -0.000 C -180.000
N528 G1 X 689.527 Y -79.926 Z 36.000 A -180.000 B -0.000 C 180.000
N529 G1 X 688.062 Y -73.083 Z 36.000 A -180.000 B -0.000 C -180.000
N530 G1 X 686.141 Y -66.521 Z 36.000 A 180.000 B -0.000 C -180.000
N531 G1 X 683.517 Y -60.013 Z 36.000 A -180.000 B -0.000 C -180.000
N532 G1 X 680.021 Y -53.184 Z 36.000 A 180.000 B -0.000 C 180.000
N533 G1 X 677.587 Y -49.357 Z 36.000 A 180.000 B -0.000 C 180.000
N534 G1 X 673.736 Y -43.915 Z 36.000 A 180.000 B -0.000 C 180.000
N535 G1 X 667.453 Y -36.863 Z 36.000 A 180.000 B -0.000 C -180.000
N536 G1 X 660.293 Y -30.565 Z 36.000 A 180.000 B -0.000 C -180.000
N537 G1 X 654.804 Y -26.718 Z 36.000 A -180.000 B -0.000 C -180.000
N538 G1 X 652.383 Y -25.166 Z 36.000 A 180.000 B -0.000 C 180.000
N539 G1 X 645.507 Y -21.516 Z 36.000 A -180.000 B -0.000 C -180.000
N540 G1 X 639.229 Y -18.905 Z 36.000 A 180.000 B -0.000 C 180.000
N541 G1 X 632.970 Y -16.946 Z 36.000 A -180.000 B -0.000 C -180.000
N542 G1 X 626.593 Y -15.447 Z 36.000 A 180.000 B -0.000 C -180.000
N543 G1 X 626.067 Y -15.351 Z 36.000 A 180.000 B -0.000 C -180.000
N544 G1 X 617.538 Y -14.316 Z 36.000 A 180.000 B -0.000 C 180.000
N545 G1 X 617.125 Y -14.284 Z 36.000 A 180.000 B -0.000 C -180.000
N546 G1 X 609.583 Y -14.187 Z 36.000 A 180.000 B -0.000 C -180.000
N547 G1 X 603.367 Y -14.670 Z 36.000 A 180.000 B -0.000 C -180.000
N548 G1 X 595.963 Y -15.877 Z 36.000 A 180.000 B -0.000 C -180.000
N549 G1 X 588.022 Y -18.032 Z 36.000 A 180.000 B -0.000 C 180.000
N550 G1 X 579.864 Y -21.214 Z 36.000 A -180.000 B -0.000 C -180.000
N551 G1 X 571.348 Y -25.763 Z 36.000 A 180.000 B -0.000 C -180.000
N552 G1 X 568.090 Y -27.947 Z 36.000 A 180.000 B -0.000 C 180.000
N553 G1 X 562.019 Y -32.523 Z 36.000 A 180.000 B -0.000 C -180.000
N554 G1 X 556.375 Y -37.759 Z 36.000 A 180.000 B -0.000 C -180.000
N555 G1 X 556.033 Y -38.113 Z 36.000 A -180.000 B -0.000 C 180.000
N556 G1 X 551.676 Y -43.158 Z 36.000 A 180.000 B -0.000 C 180.000
N557 G1 X 550.012 Y -45.166 Z 36.000 A -180.000 B -0.000 C -180.000
N558 G1 X 544.835 Y -52.938 Z 36.000 A 180.000 B -0.000 C -180.000
N559 G1 X 544.528 Y -53.477 Z 36.000 A 180.000 B -0.000 C 180.000
N560 G1 X 540.377 Y -61.850 Z 36.000 A -180.000 B -0.000 C -180.000
N561 G1 X 538.266 Y -67.493 Z 36.000 A -180.000 B -0.000 C -180.000
N562 G1 X 537.243 Y -70.773 Z 36.000 A -180.000 B -0.000 C -180.000
N563 G1 X 535.785 Y -76.652 Z 36.000 A -180.000 B -0.000 C 180.000
N564 G1 X 534.867 Y -82.703 Z 36.000 A -180.000 B -0.000 C 180.000
N565 G1 X 534.261 Y -89.345 Z 36.000 A -180.000 B -0.000 C -180.000
N566 G1 X 534.325 Y -96.309 Z 36.000 A -180.000 B -0.000 C -180.000
N567 G1 X 534.950 Y -103.009 Z 36.000 A -180.000 B -0.000 C 180.000
N568 G1 X 535.984 Y -108.615 Z 36.000 A -180.000 B -0.000 C 180.000
N569 G1 X 537.503 Y -114.647 Z 36.000 A 180.000 B -0.000 C 180.000
N570 G1 X 538.923 Y -119.039 Z 36.000 A 180.000 B -0.000 C -180.000
N571 G1 X 541.642 Y -125.517 Z 36.000 A -180.000 B -0.000 C -180.000
N572 G1 X 544.641 Y -131.305 Z 36.000 A 180.000 B -0.000 C 180.000
N573 G1 X 547.219 Y -135.356 Z 36.000 A 180.000 B -0.000 C 180.000
N574 G1 X 550.934 Y -140.615 Z 36.000 A -180.000 B -0.000 C -180.000
N575 G1 X 557.219 Y -147.680 Z 36.000 A -180.000 B -0.000 C 180.000
N576 G1 X 563.997 Y -153.650 Z 36.000 A 180.000 B -0.000 C -180.000
F1000.020
N577 G1 X 564.554 Y -153.925 Z 36.000 A 180.000 B -0.000 C 180.000
N578 G1 X 565.174 Y -153.886 Z 36.000 A -180.000 B -0.000 C 180.000
N579 G1 X 565.691 Y -153.542 Z 36.000 A 180.000 B -0.000 C 180.000
N580 G1 X 565.583 Y -151.846 Z 36.000 A -180.000 B -0.000 C -180.000
N581 G1 X 570.862 Y -144.798 Z 36.000 A 180.000 B -0.000 C -180.000
F300.000
N582 G1 X 570.862 Y -144.798 Z 30.000 A -180.000 B -0.000 C -180.000
N583 G1 X 569.176 Y -145.012 Z 30.000 A -180.000 B -0.000 C -180.000
N584 G1 X 568.935 Y -145.584 Z 30.000 A -180.000 B -0.000 C -180.000
N585 G1 X 569.013 Y -146.201 Z 30.000 A -180.000 B -0.000 C -180.000
N586 G1 X 569.389 Y -146.695 Z 30.000 A -180.000 B -0.000 C -180.000
F1000.020
N587 G1 X 573.249 Y -149.688 Z 30.000 A -180.000 B -0.000 C 180.000
N588 G1 X 577.847 Y -152.567 Z 30.000 A -180.000 B -0.000 C -180.000
N589 G1 X 581.563 Y -154.522 Z 30.000 A -180.000 B -0.000 C -180.000
N590 G1 X 587.869 Y -157.287 Z 30.000 A -180.000 B -0.000 C -180.000
N591 G1 X 595.529 Y -159.677 Z 30.000 A -180.000 B -0.000 C -180.000
N592 G1 X 600.922 Y -160.800 Z 30.000 A -180.000 B -0.000 C -180.000
N593 G1 X 607.986 Y -161.610 Z 30.000 A 180.000 B -0.000 C 180.000
N594 G1 X 614.606 Y -161.663 Z 30.000 A 180.000 B -0.000 C 180.000
N595 G1 X 620.631 Y -161.252 Z 30.000 A -180.000 B -0.000 C -180.000
N596 G1 X 621.914 Y -161.041 Z 30.000 A 180.000 B -0.000 C -180.000
N597 G1 X 628.993 Y -159.726 Z 30.000 A -180.000 B -0.000 C -180.000
N598 G1 X 637.069 Y -157.203 Z 30.000 A 180.000 B -0.000 C 180.000
N599 G1 X 644.488 Y -153.869 Z 30.000 A -180.000 B -0.000 C 180.000
N600 G1 X 648.722 Y -151.466 Z 30.000 A 180.000 B -0.000 C -180.000
N601 G1 X 652.796 Y -148.740 Z 30.000 A -180.000 B -0.000 C -180.000
N602 G1 X 657.596 Y -144.993 Z 30.000 A 180.000 B -0.000 C 180.000
N603 G1 X 662.700 Y -140.141 Z 30.000 A 180.000 B -0.000 C 180.000
N604 G1 X 665.400 Y -137.132 Z 30.000 A 180.000 B -0.000 C -180.000
N605 G1 X 670.613 Y -130.112 Z 30.000 A 180.000 B -0.000 C 180.000
N606 G1 X 672.643 Y -126.779 Z 30.000 A 180.000 B -0.000 C -180.000
N607 G1 X 675.415 Y -121.409 Z 30.000 A 180.000 B -0.000 C 180.000
N608 G1 X 677.319 Y -116.847 Z 30.000 A 180.000 B -0.000 C 180.000
N609 G1 X 678.086 Y -114.388 Z 30.000 A -180.000 B -0.000 C -180.000
N610 G1 X 679.969 Y -108.057 Z 30.000 A -180.000 B -0.000 C -180.000
N611 G1 X 681.323 Y -100.506 Z 30.000 A -180.000 B -0.000 C -180.000
N612 G1 X 681.809 Y -93.214 Z 30.000 A 180.000 B -0.000 C -180.000
N613 G1 X 681.358 Y -84.701 Z 30.000 A 180.000 B -0.000 C 180.000
N614 G1 X 679.504 Y -74.646 Z 30.000 A 180.000 B -0.000 C -180.000
N615 G1 X 678.368 Y -70.692 Z 30.000 A 180.000 B -0.000 C -180.000
N616 G1 X 677.310 Y -67.713 Z 30.000 A 180.000 B -0.000 C 180.000
N617 G1 X 675.549 Y -63.676 Z 30.000 A 180.000 B -0.000 C -180.000
N618 G1 X 673.269 Y -59.031 Z 30.000 A 180.000 B -0.000 C -180.000
N619 G1 X 669.612 Y -52.983 Z 30.000 A 180.000 B -0.000 C 180.000
N620 G1 X 665.844 Y -47.989 Z 30.000 A 180.000 B -0.000 C 180.000
N621 G1 X 662.535 Y -44.380 Z 30.000 A 180.000 B -0.000 C -180.000
N622 G1 X 658.309 Y -40.210 Z 30.000 A -180.000 B -0.000 C -180.000
N623 G1 X 651.426 Y -34.868 Z 30.000 A 180.000 B -0.000 C 180.000
N624 G1 X 646.943 Y -32.064 Z 30.000 A -180.000 B -0.000 C -180.000
N625 G1 X 643.114 Y -30.046 Z 30.000 A 180.000 B -0.000 C 180.000
N626 G1 X 636.808 Y -27.284 Z 30.000 A 180.000 B -0.000 C -180.000
N627 G1 X 629.149 Y -24.898 Z 30.000 A 180.000 B -0.000 C -180.000
N628 G1 X 624.492 Y -23.907 Z 30.000 A 180.000 B -0.000 C 180.000
N629 G1 X 616.796 Y -22.980 Z 30.000 A 180.000 B -0.000 C 180.000
N630 G1 X 610.076 Y -22.931 Z 30.000 A 180.000 B -0.000 C 180.000
N631 G1 X 604.050 Y -23.336 Z 30.000 A -180.000 B -0.000 C -180.000
N632 G1 X 602.767 Y -23.549 Z 30.000 A 180.000 B -0.000 C 180.000
N633 G1 X 595.689 Y -24.867 Z 30.000 A 180.000 B -0.000 C 180.000
N634 G1 X 587.613 Y -27.394 Z 30.000 A 180.000 B -0.000 C 180.000
N635 G1 X 580.289 Y -30.688 Z 30.000 A 180.000 B -0.000 C 180.000
N636 G1 X 576.053 Y -33.084 Z 30.000 A 180.000 B -0.000 C -180.000
N637 G1 X 571.889 Y -35.869 Z 30.000 A 180.000 B -0.000 C 180.000
N638 G1 X 567.089 Y -39.617 Z 30.000 A -180.000 B -0.000 C -180.000
N639 G1 X 562.071 Y -44.387 Z 30.000 A -180.000 B -0.000 C 180.000
N640 G1 X 559.370 Y -47.389 Z 30.000 A -180.000 B -0.000 C -180.000
N641 G1 X 554.234 Y -54.279 Z 30.000 A 180.000 B -0.000 C -180.000
N642 G1 X 552.046 Y -57.852 Z 30.000 A -180.000 B -0.000 C -180.000
N643 G1 X 549.349 Y -63.077 Z 30.000 A -180.000 B -0.000 C -180.000
N644 G1 X 547.372 Y -67.797 Z 30.000 A 180.000 B -0.000 C 180.000
N645 G1 X 546.607 Y -70.267 Z 30.000 A 180.000 B -0.000 C 180.000
N646 G1 X 544.728 Y -76.620 Z 30.000 A 180.000 B -0.000 C 180.000
N647 G1 X 543.425 Y -83.897 Z 30.000 A -180.000 B -0.000 C -180.000
N648 G1 X 543.379 Y -84.194 Z 30.000 A -180.000 B -0.000 C -180.000
N649 G1 X 542.916 Y -91.062 Z 30.000 A 180.000 B -0.000 C 180.000
N650 G1 X 543.375 Y -100.167 Z 30.000 A -180.000 B -0.000 C 180.000
N651 G1 X 545.112 Y -109.590 Z 30.000 A -180.000 B -0.000 C -180.000
N652 G1 X 547.338 Y -116.701 Z 30.000 A -180.000 B -0.000 C 180.000
N653 G1 X 550.646 Y -124.160 Z 30.000 A -180.000 B -0.000 C -180.000
N654 G1 X 551.394 Y -125.464 Z 30.000 A -180.000 B -0.000 C -180.000
N655 G1 X 555.057 Y -131.540 Z 30.000 A -180.000 B -0.000 C -180.000
N656 G1 X 558.958 Y -136.704 Z 30.000 A -180.000 B -0.000 C -180.000
N657 G1 X 562.137 Y -140.160 Z 30.000 A -180.000 B -0.000 C -180.000
N658 G1 X 566.486 Y -144.445 Z 30.000 A 180.000 B -0.000 C 180.000
N659 G1 X 569.389 Y -146.695 Z 30.000 A -180.000 B -0.000 C -180.000
F1000.020
N660 G1 X 569.962 Y -146.936 Z 30.000 A 180.000 B -0.000 C 180.000
N661 G1 X 570.578 Y -146.858 Z 30.000 A -180.000 B -0.000 C 180.000
N662 G1 X 571.072 Y -146.482 Z 30.000 A -180.000 B -0.000 C -180.000
N663 G1 X 570.859 Y -144.796 Z 30.000 A -180.000 B -0.000 C -180.000
F60000.000
N664 G1 X 577.672 Y -136.785 Z 30.000 A 180.000 B -0.000 C 180.000
F300.000
N665 G1 X 577.672 Y -136.785 Z 24.000 A 180.000 B -0.000 C -180.000
N666 G1 X 575.979 Y -136.937 Z 24.000 A -180.000 B -0.000 C -180.000
N667 G1 X 575.717 Y -137.501 Z 24.000 A 180.000 B -0.000 C -180.000
N668 G1 X 575.773 Y -138.119 Z 24.000 A -180.000 B -0.000 C -180.000
N669 G1 X 576.130 Y -138.627 Z 24.000 A -180.000 B -0.000 C -180.000
F1000.020
N670 G1 X 576.805 Y -139.191 Z 24.000 A -180.000 B -0.000 C -180.000
N671 G1 X 581.354 Y -142.356 Z 24.000 A -180.000 B -0.000 C -180.000
N672 G1 X 586.434 Y -145.094 Z 24.000 A -180.000 B -0.000 C -180.000
N673 G1 X 589.980 Y -146.676 Z 24.000 A -180.000 B -0.000 C -180.000
N674 G1 X 593.485 Y -148.035 Z 24.000 A 180.000 B -0.000 C 180.000
N675 G1 X 596.833 Y -149.097 Z 24.000 A 180.000 B -0.000 C -180.000
N676 G1 X 601.919 Y -150.212 Z 24.000 A -180.000 B -0.000 C -180.000
N677 G1 X 606.404 Y -150.821 Z 24.000 A -180.000 B -0.000 C -180.000
N678 G1 X 611.147 Y -151.174 Z 24.000 A -180.000 B -0.000 C 180.000
N679 G1 X 617.312 Y -150.973 Z 24.000 A 180.000 B -0.000 C -180.000
N680 G1 X 623.263 Y -150.160 Z 24.000 A -180.000 B -0.000 C 180.000
N681 G1 X 629.770 Y -148.496 Z 24.000 A 180.000 B -0.000 C -180.000
N682 G1 X 636.997 Y -145.780 Z 24.000 A 180.000 B -0.000 C -180.000
N683 G1 X 641.088 Y -143.701 Z 24.000 A 180.000 B -0.000 C -180.000
N684 G1 X 645.650 Y -140.870 Z 24.000 A 180.000 B -0.000 C -180.000
N685 G1 X 650.022 Y -137.559 Z 24.000 A -180.000 B -0.000 C -180.000
N686 G1 X 654.442 Y -133.402 Z 24.000 A 180.000 B -0.000 C 180.000
N687 G1 X 658.904 Y -128.373 Z 24.000 A 180.000 B -0.000 C 180.000
N688 G1 X 661.331 Y -124.990 Z 24.000 A 180.000 B -0.000 C -180.000
N689 G1 X 663.430 Y -121.486 Z 24.000 A -180.000 B -0.000 C -180.000
N690 G1 X 664.858 Y -118.750 Z 24.000 A 180.000 B -0.000 C 180.000
N691 G1 X 666.845 Y -114.635 Z 24.000 A -180.000 B -0.000 C -180.000
N692 G1 X 669.004 Y -108.149 Z 24.000 A -180.000 B -0.000 C -180.000
N693 G1 X 670.275 Y -102.908 Z 24.000 A -180.000 B -0.000 C -180.000
N694 G1 X 671.020 Y -97.021 Z 24.000 A -180.000 B -0.000 C -180.000
N695 G1 X 671.246 Y -92.178 Z 24.000 A -180.000 B -0.000 C -180.000
N696 G1 X 670.893 Y -85.851 Z 24.000 A 180.000 B -0.000 C 180.000
N697 G1 X 669.862 Y -79.708 Z 24.000 A 180.000 B -0.000 C -180.000
N698 G1 X 668.608 Y -75.113 Z 24.000 A 180.000 B -0.000 C -180.000
N699 G1 X 666.342 Y -68.889 Z 24.000 A -180.000 B -0.000 C -180.000
N700 G1 X 664.487 Y -64.894 Z 24.000 A 180.000 B -0.000 C 180.000
N701 G1 X 662.829 Y -61.972 Z 24.000 A 180.000 B -0.000 C -180.000
N702 G1 X 659.101 Y -56.640 Z 24.000 A -180.000 B -0.000 C -180.000
N703 G1 X 655.675 Y -52.397 Z 24.000 A 180.000 B -0.000 C -180.000
N704 G1 X 651.835 Y -48.668 Z 24.000 A 180.000 B -0.000 C 180.000
N705 G1 X 647.869 Y -45.358 Z 24.000 A 180.000 B -0.000 C -180.000
N706 G1 X 643.322 Y -42.203 Z 24.000 A -180.000 B -0.000 C -180.000
N707 G1 X 638.242 Y -39.470 Z 24.000 A 180.000 B -0.000 C -180.000
N708 G1 X 634.697 Y -37.891 Z 24.000 A 180.000 B -0.000 C 180.000
N709 G1 X 631.193 Y -36.536 Z 24.000 A 180.000 B -0.000 C -180.000
N710 G1 X 627.846 Y -35.477 Z 24.000 A 180.000 B -0.000 C -180.000
N711 G1 X 622.865 Y -34.386 Z 24.000 A 180.000 B -0.000 C 180.000
N712 G1 X 618.275 Y -33.759 Z 24.000 A 180.000 B -0.000 C 180.000
N713 G1 X 613.533 Y -33.409 Z 24.000 A -180.000 B -0.000 C -180.000
N714 G1 X 610.083 Y -33.447 Z 24.000 A 180.000 B -0.000 C 180.000
N715 G1 X 604.479 Y -33.935 Z 24.000 A 180.000 B -0.000 C -180.000
N716 G1 X 598.196 Y -35.157 Z 24.000 A 180.000 B -0.000 C 180.000
N717 G1 X 592.908 Y -36.810 Z 24.000 A -180.000 B -0.000 C -180.000
N718 G1 X 587.782 Y -38.788 Z 24.000 A -180.000 B -0.000 C -180.000
N719 G1 X 583.596 Y -40.902 Z 24.000 A 180.000 B -0.000 C 180.000
N720 G1 X 579.125 Y -43.676 Z 24.000 A 180.000 B -0.000 C -180.000
N721 G1 X 574.663 Y -47.052 Z 24.000 A 180.000 B -0.000 C 180.000
N722 G1 X 570.244 Y -51.213 Z 24.000 A -180.000 B -0.000 C -180.000
N723 G1 X 565.783 Y -56.247 Z 24.000 A -180.000 B -0.000 C 180.000
N724 G1 X 563.437 Y -59.517 Z 24.000 A -180.000 B -0.000 C -180.000
N725 G1 X 561.259 Y -63.147 Z 24.000 A -180.000 B -0.000 C 180.000
N726 G1 X 559.832 Y -65.885 Z 24.000 A 180.000 B -0.000 C -180.000
N727 G1 X 557.847 Y -70.011 Z 24.000 A -180.000 B -0.000 C 180.000
N728 G1 X 555.752 Y -76.300 Z 24.000 A 180.000 B -0.000 C 180.000
N729 G1 X 554.419 Y -81.755 Z 24.000 A 180.000 B -0.000 C -180.000
N730 G1 X 553.720 Y -87.336 Z 24.000 A 180.000 B -0.000 C -180.000
N731 G1 X 553.486 Y -91.584 Z 24.000 A -180.000 B -0.000 C 180.000
N732 G1 X 553.589 Y -96.002 Z 24.000 A 180.000 B -0.000 C 180.000
N733 G1 X 554.224 Y -101.656 Z 24.000 A -180.000 B -0.000 C -180.000
N734 G1 X 555.791 Y -108.496 Z 24.000 A -180.000 B -0.000 C 180.000
N735 G1 X 557.577 Y -113.770 Z 24.000 A -180.000 B -0.000 C -180.000
N736 G1 X 560.174 Y -119.585 Z 24.000 A 180.000 B -0.000 C 180.000
N737 G1 X 561.982 Y -122.774 Z 24.000 A -180.000 B -0.000 C -180.000
N738 G1 X 565.703 Y -128.062 Z 24.000 A -180.000 B -0.000 C -180.000
N739 G1 X 568.996 Y -132.138 Z 24.000 A -180.000 B -0.000 C -180.000
N740 G1 X 572.838 Y -135.877 Z 24.000 A -180.000 B -0.000 C 180.000
N741 G1 X 576.130 Y -138.627 Z 24.000 A -180.000 B -0.000 C -180.000
F1000.020
N742 G1 X 576.694 Y -138.889 Z 24.000 A -180.000 B -0.000 C -180.000
N743 G1 X 577.312 Y -138.833 Z 24.000 A -180.000 B -0.000 C -180.000
N744 G1 X 577.820 Y -138.476 Z 24.000 A -180.000 B -0.000 C -180.000
N745 G1 X 577.669 Y -136.783 Z 24.000 A 180.000 B -0.000 C 180.000
F60000.000
N746 G1 X 586.149 Y -125.862 Z 24.000 A -180.000 B -0.000 C -180.000
F300.000
N747 G1 X 586.149 Y -125.862 Z 18.000 A 180.000 B -0.000 C -180.000
N748 G1 X 584.461 Y -126.065 Z 18.000 A 180.000 B -0.000 C -180.000
N749 G1 X 584.217 Y -126.637 Z 18.000 A 180.000 B -0.000 C -180.000
N750 G1 X 584.292 Y -127.253 Z 18.000 A -180.000 B -0.000 C 180.000
N751 G1 X 584.664 Y -127.750 Z 18.000 A -180.000 B -0.000 C -180.000
F1000.020
N752 G1 X 586.205 Y -128.959 Z 18.000 A -180.000 B -0.000 C -180.000
N753 G1 X 588.757 Y -130.666 Z 18.000 A -180.000 B -0.000 C -180.000
N754 G1 X 593.965 Y -133.541 Z 18.000 A -180.000 B -0.000 C -180.000
N755 G1 X 598.314 Y -135.069 Z 18.000 A 180.000 B -0.000 C 180.000
N756 G1 X 604.736 Y -136.811 Z 18.000 A -180.000 B -0.000 C 180.000
N757 G1 X 612.278 Y -137.454 Z 18.000 A -180.000 B -0.000 C -180.000
N758 G1 X 616.901 Y -137.162 Z 18.000 A -180.000 B -0.000 C -180.000
N759 G1 X 622.908 Y -136.098 Z 18.000 A -180.000 B -0.000 C -180.000
N760 G1 X 628.030 Y -134.648 Z 18.000 A 180.000 B -0.000 C 180.000
N761 G1 X 635.131 Y -131.249 Z 18.000 A 180.000 B -0.000 C -180.000
N762 G1 X 636.108 Y -130.482 Z 18.000 A -180.000 B -0.000 C -180.000
N763 G1 X 637.145 Y -130.038 Z 18.000 A -180.000 B -0.000 C -180.000
N764 G1 X 638.227 Y -129.286 Z 18.000 A -180.000 B -0.000 C -180.000
N765 G1 X 643.965 Y -124.558 Z 18.000 A -180.000 B -0.000 C 180.000
N766 G1 X 646.491 Y -121.714 Z 18.000 A -180.000 B -0.000 C 180.000
N767 G1 X 650.741 Y -116.089 Z 18.000 A -180.000 B -0.000 C -180.000
N768 G1 X 652.695 Y -112.347 Z 18.000 A -180.000 B -0.000 C 180.000
N769 G1 X 655.260 Y -106.406 Z 18.000 A -180.000 B -0.000 C -180.000
N770 G1 X 656.092 Y -103.197 Z 18.000 A 180.000 B -0.000 C 180.000
N771 G1 X 657.412 Y -95.463 Z 18.000 A 180.000 B -0.000 C 180.000
N772 G1 X 657.523 Y -92.205 Z 18.000 A 180.000 B -0.000 C -180.000
N773 G1 X 656.966 Y -85.873 Z 18.000 A 180.000 B -0.000 C 180.000
N774 G1 X 655.509 Y -79.076 Z 18.000 A -180.000 B -0.000 C -180.000
N775 G1 X 654.084 Y -75.206 Z 18.000 A -180.000 B -0.000 C 180.000
N776 G1 X 650.407 Y -67.949 Z 18.000 A 180.000 B -0.000 C 180.000
N777 G1 X 647.211 Y -63.850 Z 18.000 A 180.000 B -0.000 C 180.000
N778 G1 X 643.223 Y -59.319 Z 18.000 A 180.000 B -0.000 C -180.000
N779 G1 X 637.054 Y -54.538 Z 18.000 A 180.000 B -0.000 C -180.000
N780 G1 X 636.508 Y -54.331 Z 18.000 A 180.000 B -0.000 C -180.000
N781 G1 X 635.916 Y -53.879 Z 18.000 A 180.000 B -0.000 C -180.000
N782 G1 X 630.712 Y -51.025 Z 18.000 A -180.000 B -0.000 C -180.000
N783 G1 X 626.472 Y -49.536 Z 18.000 A 180.000 B -0.000 C 180.000
N784 G1 X 619.943 Y -47.767 Z 18.000 A -180.000 B -0.000 C -180.000
N785 G1 X 612.402 Y -47.129 Z 18.000 A -180.000 B -0.000 C -180.000
N786 G1 X 606.489 Y -47.597 Z 18.000 A 180.000 B -0.000 C -180.000
N787 G1 X 599.437 Y -49.056 Z 18.000 A 180.000 B -0.000 C 180.000
N788 G1 X 596.277 Y -50.121 Z 18.000 A 180.000 B -0.000 C -180.000
N789 G1 X 589.367 Y -53.451 Z 18.000 A 180.000 B -0.000 C -180.000
N790 G1 X 588.664 Y -54.051 Z 18.000 A -180.000 B -0.000 C -180.000
N791 G1 X 587.537 Y -54.560 Z 18.000 A 180.000 B -0.000 C 180.000
N792 G1 X 586.458 Y -55.322 Z 18.000 A -180.000 B -0.000 C -180.000
N793 G1 X 580.808 Y -59.974 Z 18.000 A 180.000 B -0.000 C 180.000
N794 G1 X 578.196 Y -62.905 Z 18.000 A -180.000 B -0.000 C -180.000
N795 G1 X 573.946 Y -68.535 Z 18.000 A 180.000 B -0.000 C -180.000
N796 G1 X 571.994 Y -72.288 Z 18.000 A -180.000 B -0.000 C -180.000
N797 G1 X 569.431 Y -78.243 Z 18.000 A 180.000 B -0.000 C -180.000
N798 G1 X 568.602 Y -81.468 Z 18.000 A -180.000 B -0.000 C 180.000
N799 G1 X 567.327 Y -88.892 Z 18.000 A -180.000 B -0.000 C -180.000
N800 G1 X 567.202 Y -92.072 Z 18.000 A 180.000 B -0.000 C 180.000
N801 G1 X 567.539 Y -97.212 Z 18.000 A -180.000 B -0.000 C -180.000
N802 G1 X 568.711 Y -103.567 Z 18.000 A -180.000 B -0.000 C -180.000
N803 G1 X 569.395 Y -106.174 Z 18.000 A 180.000 B -0.000 C 180.000
N804 G1 X 570.572 Y -109.247 Z 18.000 A 180.000 B -0.000 C -180.000
N805 G1 X 574.259 Y -116.562 Z 18.000 A -180.000 B -0.000 C 180.000
N806 G1 X 576.300 Y -119.358 Z 18.000 A 180.000 B -0.000 C -180.000
N807 G1 X 581.450 Y -125.228 Z 18.000 A 180.000 B -0.000 C -180.000
N808 G1 X 584.664 Y -127.750 Z 18.000 A -180.000 B -0.000 C -180.000
F1000.020
N809 G1 X 585.236 Y -127.994 Z 18.000 A -180.000 B -0.000 C -180.000
N810 G1 X 585.852 Y -127.920 Z 18.000 A -180.000 B -0.000 C -180.000
N811 G1 X 586.349 Y -127.547 Z 18.000 A 180.000 B -0.000 C 180.000
N812 G1 X 586.146 Y -125.859 Z 18.000 A -180.000 B -0.000 C -180.000
F60000.000
N813 G1 X 599.932 Y -108.746 Z 18.000 A 180.000 B -0.000 C 180.000
F300.000
N814 G1 X 599.932 Y -108.746 Z 12.000 A 180.000 B -0.000 C -180.000
N815 G1 X 598.242 Y -108.931 Z 12.000 A 180.000 B -0.000 C -180.000
N816 G1 X 597.992 Y -109.499 Z 12.000 A -180.000 B -0.000 C -180.000
N817 G1 X 598.059 Y -110.117 Z 12.000 A -180.000 B -0.000 C -180.000
N818 G1 X 598.426 Y -110.618 Z 12.000 A -180.000 B -0.000 C 180.000
F1000.020
N819 G1 X 599.090 Y -111.151 Z 12.000 A -180.000 B -0.000 C -180.000
N820 G1 X 601.499 Y -112.634 Z 12.000 A 180.000 B -0.000 C 180.000
N821 G1 X 604.053 Y -113.805 Z 12.000 A -180.000 B -0.000 C -180.000
N822 G1 X 606.650 Y -114.653 Z 12.000 A -180.000 B -0.000 C 180.000
N823 G1 X 609.513 Y -115.289 Z 12.000 A -180.000 B -0.000 C -180.000
N824 G1 X 612.397 Y -115.492 Z 12.000 A -180.000 B -0.000 C -180.000
N825 G1 X 614.910 Y -115.329 Z 12.000 A 180.000 B -0.000 C -180.000
N826 G1 X 617.072 Y -114.927 Z 12.000 A 180.000 B -0.000 C -180.000
N827 G1 X 620.059 Y -114.027 Z 12.000 A 180.000 B -0.000 C -180.000
N828 G1 X 622.699 Y -112.903 Z 12.000 A -180.000 B -0.000 C -180.000
N829 G1 X 625.178 Y -111.457 Z 12.000 A 180.000 B -0.000 C 180.000
N830 G1 X 627.408 Y -109.763 Z 12.000 A -180.000 B -0.000 C -180.000
N831 G1 X 629.390 Y -107.832 Z 12.000 A -180.000 B -0.000 C -180.000
N832 G1 X 631.210 Y -105.570 Z 12.000 A -180.000 B -0.000 C -180.000
N833 G1 X 632.697 Y -103.155 Z 12.000 A -180.000 B -0.000 C -180.000
N834 G1 X 633.858 Y -100.625 Z 12.000 A 180.000 B -0.000 C 180.000
N835 G1 X 634.695 Y -97.995 Z 12.000 A -180.000 B -0.000 C -180.000
N836 G1 X 635.212 Y -95.284 Z 12.000 A 180.000 B -0.000 C 180.000
N837 G1 X 635.393 Y -91.855 Z 12.000 A -180.000 B -0.000 C -180.000
N838 G1 X 634.939 Y -87.741 Z 12.000 A -180.000 B -0.000 C -180.000
N839 G1 X 634.276 Y -85.244 Z 12.000 A -180.000 B -0.000 C -180.000
N840 G1 X 632.951 Y -81.922 Z 12.000 A 180.000 B -0.000 C -180.000
N841 G1 X 631.611 Y -79.617 Z 12.000 A 180.000 B -0.000 C 180.000
N842 G1 X 629.859 Y -77.281 Z 12.000 A 180.000 B -0.000 C 180.000
N843 G1 X 627.850 Y -75.214 Z 12.000 A 180.000 B -0.000 C -180.000
N844 G1 X 625.703 Y -73.492 Z 12.000 A -180.000 B -0.000 C -180.000
N845 G1 X 623.291 Y -71.994 Z 12.000 A 180.000 B -0.000 C 180.000
N846 G1 X 620.625 Y -70.768 Z 12.000 A -180.000 B -0.000 C -180.000
N847 G1 X 618.028 Y -69.920 Z 12.000 A 180.000 B -0.000 C -180.000
N848 G1 X 615.167 Y -69.293 Z 12.000 A -180.000 B -0.000 C -180.000
N849 G1 X 612.384 Y -69.093 Z 12.000 A -180.000 B -0.000 C -180.000
N850 G1 X 609.871 Y -69.250 Z 12.000 A 180.000 B -0.000 C -180.000
N851 G1 X 607.707 Y -69.646 Z 12.000 A 180.000 B -0.000 C 180.000
N852 G1 X 604.623 Y -70.569 Z 12.000 A 180.000 B -0.000 C -180.000
N853 G1 X 601.985 Y -71.700 Z 12.000 A 180.000 B -0.000 C -180.000
N854 G1 X 599.597 Y -73.088 Z 12.000 A 180.000 B -0.000 C 180.000
N855 G1 X 597.366 Y -74.777 Z 12.000 A -180.000 B -0.000 C 180.000
N856 G1 X 595.295 Y -76.782 Z 12.000 A 180.000 B -0.000 C 180.000
N857 G1 X 593.559 Y -78.946 Z 12.000 A 180.000 B -0.000 C -180.000
N858 G1 X 592.069 Y -81.344 Z 12.000 A 180.000 B -0.000 C -180.000
N859 G1 X 590.834 Y -84.024 Z 12.000 A 180.000 B -0.000 C 180.000
N860 G1 X 589.998 Y -86.659 Z 12.000 A -180.000 B -0.000 C -180.000
N861 G1 X 589.486 Y -89.394 Z 12.000 A 180.000 B -0.000 C 180.000
N862 G1 X 589.301 Y -92.252 Z 12.000 A -180.000 B -0.000 C -180.000
N863 G1 X 589.425 Y -94.581 Z 12.000 A -180.000 B -0.000 C -180.000
N864 G1 X 590.064 Y -98.044 Z 12.000 A -180.000 B -0.000 C -180.000
N865 G1 X 590.631 Y -100.018 Z 12.000 A 180.000 B -0.000 C 180.000
N866 G1 X 591.705 Y -102.535 Z 12.000 A 180.000 B -0.000 C 180.000
N867 G1 X 593.199 Y -105.120 Z 12.000 A -180.000 B -0.000 C 180.000
N868 G1 X 594.810 Y -107.242 Z 12.000 A -180.000 B -0.000 C -180.000
N869 G1 X 596.822 Y -109.329 Z 12.000 A 180.000 B -0.000 C 180.000
N870 G1 X 598.426 Y -110.618 Z 12.000 A -180.000 B -0.000 C 180.000
F1000.020
N871 G1 X 598.994 Y -110.868 Z 12.000 A -180.000 B -0.000 C 180.000
N872 G1 X 599.612 Y -110.801 Z 12.000 A -180.000 B -0.000 C 180.000
N873 G1 X 600.113 Y -110.434 Z 12.000 A -180.000 B -0.000 C -180.000
N874 G1 X 599.929 Y -108.744 Z 12.000 A -180.000 B -0.000 C -180.000
N875 G1 X 599.929 Y -108.744 Z 13.200 A -180.000 B -0.000 C -180.000
F60000.000
N876 G1 X 599.929 Y -108.744 Z 61.000 A 180.000 B -0.000 C 180.000
F60000.000
N877 G1 X 599.929 Y -108.744 Z 61.000 A 180.000 B -0.000 C 180.000
N878 G1 X 599.929 Y -108.744 Z 161.000 A -180.000 B -0.000 C 180.000
; ENDPROC
