; File: Path1
; Created on 2024-06-27 11:50:57
; Program created using RoboDK
N01 G17 G710 G40 ; XY plane selection, metric, no tool radius compensation
N02 TRAORI
N03 M32
N04 G54
N05 G90
N06 G64
N07 ORIWKS
N08 ORIVIRT1
N09 STOPRE ; stop preprocessing
N10 ; R6=1.181
N11 ; R19=0.00
N12 ; R20=83.00
N13 STOPRE
N14 ; M3 S7458 ; Generic way to turn on the spindle
N15 S1700.0 M80 ; Customized Spindle speed and power on
; ---- Program start ----
; Program generated by RoboDK v3.4.5 for Comau Smart NM 45-2.0 on 27/06/2024 11:50:57
; Using nominal kinematics.
N16 GOTOF onPath1_Start
N17 onPath1_Start_done:
; ------ Update reference: Part1 reference ------
N18 $P_UIFR[1]=CTRANS(X,4192.24301,Y,3599.72011,Z,-291.38848):CROT(X,86.77117,Y,60.25880,Z,1.63810)
N19 G54
; ---------------------------
; ------ Update TCP: Spindle ------
N20 $TC_DP5[1,1]=-360.18750
N21 $TC_DP4[1,1]=0.00000
N22 $TC_DP3[1,1]=-119.26815
N23 $TC_DPC3[1,1]=0.0
N24 $TC_DPC2[1,1]=0.0
N25 $TC_DPC1[1,1]=0.0
N26 T1 D1
; ---------------------------- 
N27 TRAFOOF
N28 G1 JT1=-41.419165 JT2=-55.405655 JT3=-50.845679 A=-127.968436 B=-23.769399 C=-2.748412 G=3847.710000 H=669.690000 I=92.470000 F2000.0
N29 GOTOF onPath1_Approach
N30 onPath1_Approach_done:
N31 TRAORI
N32 G54
N33 G1 X545.692 Y61.692 Z-167.935 A=2.503 B=6.864 C=-135.400 F5000.0
N34 G1 X475.000 Y-8.828 Z-162.500 A=2.503 B=6.864 C=-135.400 F5000.0
N35 GOTOF onPath1_PathStart
N36 onPath1_PathStart_done:
N37 G1 Z-162.500 A=2.503 B=6.864 C=-135.400 F5000.0
N38 G1 Y-5.652 Z-130.092 A=2.354 B=6.969 C=-136.763 F5000.0
N39 G1 Y-3.180 Z-97.623 A=2.917 B=6.452 C=-135.347 F5000.0
N40 G1 Y-1.414 Z-65.107 A=3.449 B=5.923 C=-135.304 F5000.0
N41 G1 Y-0.353 Z-32.561 A=4.144 B=5.236 C=-135.236 F5000.0
N42 G1 Y0.000 Z0.000 A=4.702 B=4.686 C=-135.192 F5000.0
N43 G1 Y-0.353 Z32.561 A=5.189 B=4.173 C=-135.405 F5000.0
N44 G1 Y-1.414 Z65.107 A=5.960 B=3.449 C=-135.100 F5000.0
N45 G1 Y-3.180 Z97.623 A=6.429 B=2.910 C=-135.516 F5000.0
N46 G1 Y-5.652 Z130.092 A=7.295 B=2.408 C=-133.674 F5000.0
N47 G1 Y-8.828 Z162.500 A=6.919 B=2.507 C=-135.040 F5000.0
N48 G1 Z162.500 A=6.919 B=2.507 C=-135.040 F5000.0
N49 G1 X475.812 Y-11.280 Z183.612 A=6.436 B=2.951 C=-135.243 F5000.0
N50 G1 X478.236 Y-14.015 Z204.565 A=4.491 B=4.891 C=-135.237 F5000.0
N51 G1 X482.252 Y-17.007 Z225.236 A=2.532 B=6.851 C=-134.969 F5000.0
N52 G1 X487.827 Y-20.228 Z245.508 A=0.550 B=8.793 C=-134.340 F5000.0
N53 G1 X494.924 Y-23.642 Z265.267 A=-1.004 B=10.261 C=-133.810 F5000.0
N54 G1 X503.495 Y-27.209 Z284.404 A=-3.121 B=12.143 C=-132.745 F5000.0
N55 G1 X513.491 Y-30.884 Z302.815 A=-4.792 B=13.530 C=-131.819 F5000.0
N56 G1 X524.853 Y-34.619 Z320.404 A=-7.117 B=15.259 C=-130.228 F5000.0
N57 G1 X537.519 Y-38.364 Z337.076 A=-9.570 B=16.810 C=-128.246 F5000.0
N58 G1 X551.422 Y-42.065 Z352.742 A=-12.193 B=18.190 C=-125.965 F5000.0
N59 G1 X566.490 Y-45.669 Z367.315 A=-14.285 B=19.085 C=-124.038 F5000.0
N60 G1 X582.645 Y-49.119 Z380.714 A=-17.160 B=19.940 C=-121.081 F5000.0
N61 G1 X599.802 Y-52.360 Z392.860 A=-20.160 B=20.434 C=-117.798 F5000.0
N62 G1 X617.871 Y-55.340 Z403.678 A=-22.460 B=20.530 C=-115.143 F5000.0
N63 G1 X636.753 Y-58.005 Z413.100 A=-25.482 B=20.166 C=-111.307 F5000.0
N64 G1 X656.342 Y-60.309 Z421.060 A=-28.400 B=19.261 C=-107.262 F5000.0
N65 G1 X676.523 Y-62.209 Z427.502 A=-30.452 B=18.205 C=-104.122 F5000.0
N66 G1 X697.174 Y-63.668 Z432.378 A=-32.828 B=16.285 C=-99.874 F5000.0
N67 G1 X718.166 Y-64.657 Z435.651 A=-34.699 B=13.844 C=-95.614 F5000.0
N68 G1 X739.365 Y-65.157 Z437.294 A=-35.983 B=11.004 C=-91.398 F5000.0
N69 G1 X760.634 A=-36.499 B=8.706 C=-88.292 F5000.0
N70 G1 X781.833 Y-64.657 Z435.651 A=-36.587 B=5.551 C=-84.209 F5000.0
N71 G1 X802.825 Y-63.668 Z432.378 A=-36.195 B=3.223 C=-81.195 F5000.0
N72 G1 X823.476 Y-62.209 Z427.502 A=-35.129 B=0.333 C=-77.265 F5000.0
N73 G1 X843.657 Y-60.309 Z421.060 A=-33.518 B=-2.183 C=-73.434 F5000.0
N74 G1 X863.246 Y-58.005 Z413.100 A=-31.519 B=-4.249 C=-69.712 F5000.0
N75 G1 X882.128 Y-55.340 Z403.679 A=-29.173 B=-5.764 C=-66.157 F5000.0
N76 G1 X900.197 Y-52.360 Z392.860 A=-26.643 B=-6.731 C=-62.815 F5000.0
N77 G1 X917.355 Y-49.119 Z380.714 A=-25.294 B=-6.964 C=-61.271 F5000.0
N78 G1 X933.509 Y-45.669 Z367.315 A=-22.658 B=-7.167 C=-58.304 F5000.0
N79 G1 X948.577 Y-42.066 Z352.742 A=-20.047 B=-6.931 C=-55.622 F5000.0
N80 G1 X962.481 Y-38.364 Z337.076 A=-17.537 B=-6.373 C=-53.181 F5000.0
N81 G1 X975.147 Y-34.619 Z320.404 A=-15.090 B=-5.440 C=-51.097 F5000.0
N82 G1 X986.509 Y-30.884 Z302.815 A=-12.748 B=-4.242 C=-49.321 F5000.0
N83 G1 X996.505 Y-27.209 Z284.404 A=-11.049 B=-3.179 C=-48.212 F5000.0
N84 G1 X1005.076 Y-23.642 Z265.267 A=-9.417 B=-2.019 C=-47.293 F5000.0
N85 G1 X1012.173 Y-20.228 Z245.508 A=-7.320 B=-0.376 C=-46.243 F5000.0
N86 G1 X1017.748 Y-17.007 Z225.237 A=-5.308 B=1.348 C=-45.385 F5000.0
N87 G1 X1021.764 Y-14.015 Z204.565 A=-3.335 B=3.194 C=-44.875 F5000.0
N88 G1 X1024.188 Y-11.280 Z183.612 A=-1.866 B=4.635 C=-44.729 F5000.0
N89 G1 X1025.000 Y-8.828 Z162.500 A=-1.057 B=5.443 C=-44.755 F5000.0
N90 G1 Z162.500 A=-1.057 B=5.443 C=-44.755 F5000.0
N91 G1 Y-5.652 Z130.092 A=-0.840 B=5.549 C=-43.402 F5000.0
N92 G1 Y-3.180 Z97.623 A=-1.476 B=5.031 C=-44.797 F5000.0
N93 G1 Y-1.414 Z65.107 A=-2.011 B=4.502 C=-44.827 F5000.0
N94 G1 Y-0.353 Z32.561 A=-2.710 B=3.815 C=-44.878 F5000.0
N95 G1 Y0.000 Z0.000 A=-3.269 B=3.264 C=-44.907 F5000.0
N96 G1 Y-0.353 Z-32.561 A=-3.745 B=2.750 C=-44.682 F5000.0
N97 G1 Y-1.414 Z-65.107 A=-4.530 B=2.024 C=-44.968 F5000.0
N98 G1 Y-3.180 Z-97.623 A=-4.977 B=1.483 C=-44.540 F5000.0
N99 G1 Y-5.652 Z-130.092 A=-5.933 B=0.980 C=-46.366 F5000.0
N100 G1 Y-8.828 Z-162.500 A=-5.489 B=1.079 C=-45.005 F5000.0
N101 G1 Z-162.500 A=-5.489 B=1.079 C=-45.005 F5000.0
N102 G1 X1024.188 Y-11.280 Z-183.612 A=-4.998 B=1.524 C=-44.813 F5000.0
N103 G1 X1021.764 Y-14.015 Z-204.565 A=-3.059 B=3.467 C=-44.867 F5000.0
N104 G1 X1017.748 Y-17.007 Z-225.236 A=-1.109 B=5.430 C=-45.183 F5000.0
N105 G1 X1012.173 Y-20.228 Z-245.508 A=0.854 B=7.369 C=-45.858 F5000.0
N106 G1 X1005.076 Y-23.642 Z-265.267 A=2.390 B=8.829 C=-46.420 F5000.0
N107 G1 X996.505 Y-27.209 Z-284.404 A=4.476 B=10.700 C=-47.523 F5000.0
N108 G1 X986.509 Y-30.884 Z-302.815 A=6.120 B=12.075 C=-48.475 F5000.0
N109 G1 X975.147 Y-34.619 Z-320.404 A=8.396 B=13.790 C=-50.094 F5000.0
N110 G1 X962.481 Y-38.364 Z-337.076 A=10.783 B=15.326 C=-52.091 F5000.0
N111 G1 X948.578 Y-42.065 Z-352.742 A=13.325 B=16.691 C=-54.374 F5000.0
N112 G1 X933.510 Y-45.669 Z-367.315 A=15.351 B=17.580 C=-56.298 F5000.0
N113 G1 X917.355 Y-49.119 Z-380.714 A=18.112 B=18.439 C=-59.231 F5000.0
N114 G1 X900.198 Y-52.360 Z-392.860 A=20.983 B=18.953 C=-62.478 F5000.0
N115 G1 X882.129 Y-55.340 Z-403.678 A=23.180 B=19.078 C=-65.100 F5000.0
N116 G1 X863.247 Y-58.005 Z-413.100 A=26.050 B=18.784 C=-68.882 F5000.0
N117 G1 X843.658 Y-60.309 Z-421.060 A=28.815 B=17.988 C=-72.870 F5000.0
N118 G1 X823.477 Y-62.209 Z-427.502 A=30.757 B=17.044 C=-75.970 F5000.0
N119 G1 X802.826 Y-63.668 Z-432.378 A=32.987 B=15.307 C=-80.176 F5000.0
N120 G1 X781.834 Y-64.657 Z-435.651 A=34.773 B=13.112 C=-84.403 F5000.0
N121 G1 X760.635 Y-65.157 Z-437.294 A=35.994 B=10.550 C=-88.603 F5000.0
N122 G1 X739.366 A=36.492 B=8.478 C=-91.707 F5000.0
N123 G1 X718.167 Y-64.657 Z-435.651 A=36.596 B=5.633 C=-95.791 F5000.0
N124 G1 X697.175 Y-63.668 Z-432.378 A=36.244 B=3.535 C=-98.807 F5000.0
N125 G1 X676.524 Y-62.209 Z-427.502 A=35.264 B=0.930 C=-102.736 F5000.0
N126 G1 X656.343 Y-60.309 Z-421.060 A=33.769 B=-1.338 C=-106.559 F5000.0
N127 G1 X636.754 Y-58.005 Z-413.100 A=31.907 B=-3.199 C=-110.264 F5000.0
N128 G1 X617.872 Y-55.340 Z-403.679 A=29.708 B=-4.556 C=-113.795 F5000.0
N129 G1 X599.803 Y-52.360 Z-392.860 A=27.324 B=-5.410 C=-117.113 F5000.0
N130 G1 X582.645 Y-49.119 Z-380.714 A=26.044 B=-5.604 C=-118.645 F5000.0
N131 G1 X566.491 Y-45.669 Z-367.315 A=23.539 B=-5.749 C=-121.597 F5000.0
N132 G1 X551.423 Y-42.066 Z-352.742 A=21.045 B=-5.479 C=-124.270 F5000.0
N133 G1 X537.519 Y-38.364 Z-337.076 A=18.642 B=-4.908 C=-126.711 F5000.0
N134 G1 X524.853 Y-34.619 Z-320.404 A=16.277 B=-3.971 C=-128.805 F5000.0
N135 G1 X513.491 Y-30.884 Z-302.815 A=14.005 B=-2.780 C=-130.602 F5000.0
N136 G1 X503.495 Y-27.209 Z-284.404 A=12.351 B=-1.727 C=-131.731 F5000.0
N137 G1 X494.924 Y-23.642 Z-265.267 A=10.751 B=-0.573 C=-132.677 F5000.0
N138 G1 X487.827 Y-20.228 Z-245.508 A=8.696 B=1.057 C=-133.764 F5000.0
N139 G1 X482.252 Y-17.007 Z-225.237 A=6.718 B=2.776 C=-134.666 F5000.0
N140 G1 X478.236 Y-14.015 Z-204.565 A=4.771 B=4.614 C=-135.222 F5000.0
N141 G1 X475.812 Y-11.280 Z-183.612 A=3.310 B=6.056 C=-135.405 F5000.0
N142 G1 X475.000 Y-8.828 Z-162.500 A=2.503 B=6.864 C=-135.400 F5000.0
N143 GOTOF onPath1_Retract
N144 onPath1_Retract_done:
N145 G1 Z-162.500 A=2.503 B=6.864 C=-135.400 F5000.0
N146 G1 X545.692 Y61.692 Z-167.935 A=2.503 B=6.864 C=-135.400 F5000.0
N147 GOTOF onPath1_Finish
N148 onPath1_Finish_done:
; End of main program Path1
N149 M30
; ---------------------------
; 
